!!!!SEGMENT: pl-cz--ii-139_kuci-mateusz--offertorium-c.krn
!!!cenid: 17xx:228
!!!COM: Kuci, Mateusz
!!!COM-rismid: pe30017582
!!!CDT:
!!!CNT:
!!!OTL: Offertorium C
!!!PDT:
!!!AGN:
!!!SMS-siglum: PL-CZ
!!!SMS-shelfmark: II-139
!!!SMS-shelfwork: W
!!!NIFC-rismid:
!!!URL-scan: http://repozytorium.nifc.pl/skany/pl-cz-nut--ii-139
!!!ONB-nifc:
!!!AIN: 1 alto 1 empty 2 oboe 1 organ 1 tenor 2 violn
!!!key:
**kern	**fba	**dynam	**kern	**dynam	**kern	**dynam	**kern	**text	**kern	**text	**kern	**text	**kern	**text	**kern	**dynam	**kern	**dynam
*part9	*	*part9	*part8	*part8	*part3	*part3	*part6	*part6	*part5	*part5	*part4	*part4	*part5	*part5	*part2	*part2	*part1	*part1
*staff9	*	*	*staff8	*	*staff3	*	*staff6	*staff6	*staff5	*staff5	*staff4	*staff4	*staff5	*staff5	*staff2	*	*staff1	*
*Iorgan	*	*	*Ivioln	*	*Ivioln	*	*Iempty	*	*Itenor	*	*Ialto	*	*Isoprn	*	*Ioboe	*	*Ioboe	*
*I"Organo	*	*	*I"Violino secondo	*	*I"Violino primo	*	*I"Baſso	*	*I"Tenore	*	*I"Alto	*	*I"Soprano	*	*I"Oboe Secondo	*	*I"Oboe Primo	*
*I'Org	*	*	*I'Vn II	*	*I'Vn I	*	*I'B	*	*I'T	*	*I'A	*	*I'S	*	*I'Ob II	*	*I'Ob I	*
*clefF4	*	*	*clefG2	*	*clefG2	*	*clefF4	*	*clefC4	*	*clefC3	*	*clefC1	*	*clefG2	*	*clefG2	*
*k[]	*	*	*k[]	*	*k[]	*	*k[]	*	*k[]	*	*k[]	*	*k[]	*	*k[]	*	*k[]	*
*C:	*	*	*C:	*	*C:	*	*C:	*	*C:	*	*C:	*	*C:	*	*C:	*	*C:	*
*M2/4	*	*	*M2/4	*	*M2/4	*	*M2/4	*	*M2/4	*	*M2/4	*	*M2/4	*	*M2/4	*	*M2/4	*
!	!	!	!	!	!	!	!LO:TX:a:t=And(an)te Mod(era)to	!	!LO:TX:a:t=And&colon;	!	!LO:TX:a:t=Andante Mod&colon;	!	!	!	!LO:TX:a:t=And(an)te Mod(era)to	!	!LO:TX:a:B:t=And(an)te Mod(era)to	!
!	!	!	!	!	!	!	!	!	!	!	!LO:TX:a:t=7.	!	!	!	!	!	!LO:TX:t=P:problem=w całym utworze 3 i 6 nad nutami, z łukami i ponieważ wpisane triolaliami i sekstolami zapisane w tremolo 4. a nie 4	!
8ryy	.	.	8r	.	8g	.	8ryy	.	8ryy	.	8r	.	8ryy	.	8r	.	8r	.
=1	=1	=1	=1	=1	=1	=1	=1	=1	=1	=1	=1	=1	=1	=1	=1	=1	=1	=1
!	!	!	!LO:TX:a:t=And(an)te Mod(era)to	!	!	!	!	!	!	!	!	!	!	!	!LO:TX:a:t=1.	!	!LO:TX:a:t=1	!
*	*	*below	*	*below	*	*below	*	*	*	*	*	*	*	*	*	*	*	*
!	!	!	!	!	!	!	!	!	!LO:TX:a:t=7.	!	!	!	!LO:TX:a:t=5	!	!	!	!	!
!	!	!	!	!	!	!	!LO:N:vis=00	!	!LO:N:vis=00	!	!LO:N:vis=00	!	!LO:N:vis=00	!	!	!	!	!
8C/L	.	p	4e	p	(4cc\	pp	0r	.	0r	.	0r	.	0r	.	2r	.	2r	.
8C/	.	.	.	.	.	.	.	.	.	.	.	.	.	.	.	.	.	.
8C/	.	.	(16eLL	.	16cc\LL	.	.	.	.	.	.	.	.	.	.	.	.	.
.	.	.	32gL	.	32ee\L	.	.	.	.	.	.	.	.	.	.	.	.	.
.	.	.	32fJJJ)	.	32dd\JJJ	.	.	.	.	.	.	.	.	.	.	.	.	.
.	16qqff/	.	16qqa	.	16qqff	.	.	.	.	.	.	.	.	.	.	.	.	.
8C/J	.	.	16gLL	.	16ee\LL	.	.	.	.	.	.	.	.	.	.	.	.	.
.	.	.	32fL	.	32dd\L	.	.	.	.	.	.	.	.	.	.	.	.	.
.	.	.	32eJJJ	.	32cc\JJJ)	.	.	.	.	.	.	.	.	.	.	.	.	.
=2	=2	=2	=2	=2	=2	=2	=2	=2	=2	=2	=2	=2	=2	=2	=2	=2	=2	=2
!LO:TX:t=P:mixedbeam:problem	!	!	!	!	!	!	!	!	!	!	!	!	!	!	!	!	!	!
8G\L	.	.	8.dL	.	(8.b\L	.	.	.	.	.	.	.	.	.	4r	.	4r	.
8GG/J	.	.	.	.	.	.	.	.	.	.	.	.	.	.	.	.	.	.
.	.	.	32eLL	.	32cc\LL	.	.	.	.	.	.	.	.	.	.	.	.	.
.	.	.	32fJJJ	.	32dd\JJJ)	.	.	.	.	.	.	.	.	.	.	.	.	.
8C/L	.	.	16eLL	.	8cc\	.	.	.	.	.	.	.	.	.	8r	.	8r	.
!	!	!	!LO:TX:a:t=P:problem=mixed beam	!	!	!	!	!	!	!	!	!	!	!	!	!	!	!
.	.	.	16cc	.	.	.	.	.	.	.	.	.	.	.	.	.	.	.
8E/J	6	f	16cc	.	(32gg\LLL	.	.	.	.	.	.	.	.	.	8gg	.	8ccc	.
.	.	.	.	.	32aa\	.	.	.	.	.	.	.	.	.	.	.	.	.
.	.	.	16ccJJ	.	32bb\	???	.	.	.	.	.	.	.	.	.	.	.	.
.	.	.	.	.	32ccc\JJJ)	.	.	.	.	.	.	.	.	.	.	.	.	.
=3	=3	=3	=3	=3	=3	=3	=3	=3	=3	=3	=3	=3	=3	=3	=3	=3	=3	=3
8F\L	.	.	16ccLL	f	16aa\LL	f	.	.	.	.	.	.	.	.	16ffLL	.	16aaLL	.
.	.	.	16cc	.	32bb\L	.	.	.	.	.	.	.	.	.	32ggL	.	32bbL	.
.	.	.	.	.	32ccc\JJJ	.	.	.	.	.	.	.	.	.	32aaJJJ	.	32cccJJJ	.
8F\	.	.	16cc	.	16bb\LL	.	.	.	.	.	.	.	.	.	16ggLL	.	16bbLL	.
.	.	.	16ccJJ	.	16aa\JJ	.	.	.	.	.	.	.	.	.	16ffJJ	.	16aaJJ	.
8G\	6 4	.	16eeLL	.	16gg\LL	.	.	.	.	.	.	.	.	.	16eeLL	.	16ggLL	.
.	.	.	16dd	.	16ff\	.	.	.	.	.	.	.	.	.	16dd	.	16ff	.
!LO:TX:t=P:problem=mixedbeam	!	!	!	!	!	!	!	!	!	!	!	!	!	!	!	!	!	!
8GG/J	5 3	.	16cc	.	16ee\	.	.	.	.	.	.	.	.	.	16cc	.	16ee	.
.	.	.	16bJJ	.	16dd\JJ	.	.	.	.	.	.	.	.	.	16bJJ	.	16ddJJ	.
=4	=4	=4	=4	=4	=4	=4	=4	=4	=4	=4	=4	=4	=4	=4	=4	=4	=4	=4
8C/L	.	ff	16ccKL	.	32ee\LLL	.	.	.	.	.	.	.	.	.	8cc	.	8eeL	.
.	.	.	.	.	32cc\	.	.	.	.	.	.	.	.	.	.	.	.	.
.	.	.	8cc	.	32dd\	.	.	.	.	.	.	.	.	.	.	.	.	.
.	.	.	.	.	32ee\JJJ	.	.	.	.	.	.	.	.	.	.	.	.	.
8D/J	6	.	.	.	32ff\LLL	.	.	.	.	.	.	.	.	.	4cc	.	8ff	.
.	.	.	.	.	32gg\	.	.	.	.	.	.	.	.	.	.	.	.	.
.	.	.	8cc	.	32aa\	.	.	.	.	.	.	.	.	.	.	.	.	.
.	.	.	.	.	32bb\JJJ	.	.	.	.	.	.	.	.	.	.	.	.	.
8E/L	6	.	.	.	32ccc\LLL	.	.	.	.	.	.	.	.	.	.	.	8gg	.
.	.	.	.	.	32bb\	.	.	.	.	.	.	.	.	.	.	.	.	.
.	.	.	8cc	.	32ccc\	.	.	.	.	.	.	.	.	.	.	.	.	.
.	.	.	.	.	32bb\JJJ	.	.	.	.	.	.	.	.	.	.	.	.	.
!	!	!	!	!	!LO:LB:g=original	!	!	!	!	!	!	!	!	!	!	!	!	!
8E/J	.	.	.	.	32ccc\LLL	.	.	.	.	.	.	.	.	.	8cc	.	8cccJ	.
.	.	.	.	.	32bb\	.	.	.	.	.	.	.	.	.	.	.	.	.
.	.	.	16ccJk	.	32aa\	.	.	.	.	.	.	.	.	.	.	.	.	.
.	.	.	.	.	32gg#X\JJJ	.	.	.	.	.	.	.	.	.	.	.	.	.
=5	=5	=5	=5	=5	=5	=5	=5	=5	=5	=5	=5	=5	=5	=5	=5	=5	=5	=5
!	!	!	!	!	!	!	!LO:N:vis=0	!	!LO:N:vis=0	!	!LO:N:vis=0	!	!	!	!	!	!	!
8F\L	5	.	32ccLLL	.	32aa\LLL	.	1r	.	1r	.	1r	.	2r	.	4cc	.	16aaLL	.
.	.	.	32cc	.	32aa\	.	.	.	.	.	.	.	.	.	.	.	.	.
.	.	.	32aa	.	32ccc\	.	.	.	.	.	.	.	.	.	.	.	16ccc	.
.	.	.	32aaJJJ	.	32ccc\JJJ	.	.	.	.	.	.	.	.	.	.	.	.	.
8F\	6	.	32ggLLL	.	32bb\LLL	.	.	.	.	.	.	.	.	.	.	.	16bb	.
.	.	.	32gg	.	32bb\	.	.	.	.	.	.	.	.	.	.	.	.	.
.	.	.	32ff	.	32aa\	.	.	.	.	.	.	.	.	.	.	.	16aaJJ	.
.	.	.	32ffJJJ	.	32aa\JJJ	.	.	.	.	.	.	.	.	.	.	.	.	.
!	!	!	!LO:LB:g=original	!	!	!	!	!	!	!	!	!	!	!	!	!	!	!
8G\	6 4	.	32eeLLL	.	32gg\LLL	.	.	.	.	.	.	.	.	.	16eeLL	.	16ggLL	.
.	.	.	32ee	.	32gg\	.	.	.	.	.	.	.	.	.	.	.	.	.
.	.	.	32dd	.	32ff\	.	.	.	.	.	.	.	.	.	16dd	.	16ff	.
.	.	.	32ddJJJ	.	32ff\JJJ	.	.	.	.	.	.	.	.	.	.	.	.	.
!LO:TX:t=P:problem=mixedbeam	!	!	!	!	!	!	!	!	!	!	!	!	!	!	!	!	!	!
8GG/J	5 3	.	32ccLLL	.	32ee\LLL	.	.	.	.	.	.	.	.	.	16cc	.	16ee	.
.	.	.	32cc	.	32ee\	.	.	.	.	.	.	.	.	.	.	.	.	.
.	.	.	32b	.	32dd\	.	.	.	.	.	.	.	.	.	16gJJ	.	16ddJJ	.
.	.	.	32bJJJ	.	32dd\JJJ	.	.	.	.	.	.	.	.	.	.	.	.	.
=6	=6	=6	=6	=6	=6	=6	=6	=6	=6	=6	=6	=6	=6	=6	=6	=6	=6	=6
!LO:LB:g=original	!	!	!	!	!	!	!	!	!	!	!	!	!	!	!	!	!	!
!	!	!	!LO:TX:a:t=P:problem=mixed beam	!	!LO:TX:a:t=P:problem=mixedbeam	!	!	!	!	!	!	!	!	!	!	!	!	!
16C\LL	.	.	8ccL\	.	8cc\L	.	.	.	.	.	.	.	4r	.	8e	.	8cc	.
32E\L	.	.	.	.	.	.	.	.	.	.	.	.	.	.	.	.	.	.
32F\JJJ	.	.	.	.	.	.	.	.	.	.	.	.	.	.	.	.	.	.
!	!	!	!LO:N:vis=32	!	!	!	!	!	!	!	!	!	!	!	!	!	!	!
32G\LLL	.	.	16eL/	.	16e/L	.	.	.	.	.	.	.	.	.	8r	.	8r	.
32F\	.	.	.	.	.	.	.	.	.	.	.	.	.	.	.	.	.	.
!	!	!	!LO:N:vis=32	!	!	!	!	!	!	!	!	!	!	!	!	!	!	!
32E\	.	.	16fJJ/	.	16f/JJ	.	.	.	.	.	.	.	.	.	.	.	.	.
32D\JJJ	.	.	.	.	.	.	.	.	.	.	.	.	.	.	.	.	.	.
8C/	.	.	32gLLL	.	(32g/LLL	.	.	.	.	.	.	.	8r	.	4r	.	4r	.
.	.	.	32f	.	32f/	.	.	.	.	.	.	.	.	.	.	.	.	.
.	.	.	32e	.	32e/	.	.	.	.	.	.	.	.	.	.	.	.	.
.	.	.	32dJJJ	.	32d/JJJ)	.	.	.	.	.	.	.	.	.	.	.	.	.
!	!	!	!LO:N:vis=8	!	!LO:N:vis=8	!	!	!	!	!	!	!	!	!	!	!	!	!
8r	.	.	16c	.	16c/	.	.	.	.	.	.	.	16g\	O	.	.	.	.
!	!	!	!LO:N:vis=8	!	!LO:N:vis=8	!	!	!	!	!	!	!	!	!	!	!	!	!
.	.	.	16r	.	16r	.	.	.	.	.	.	.	16g\	quam	.	.	.	.
=7	=7	=7	=7	=7	=7	=7	=7	=7	=7	=7	=7	=7	=7	=7	=7	=7	=7	=7
!	!	!	!	!	!	!	!	!	!	!	!	!	!	!	!	!	!LO:LB:g=original	!
.	.	.	.	.	.	.	.	.	.	.	.	.	.	.	.	16qqb/	.	.
8C/L	.	p	4e	pp	(4cc\	pp	2r	.	2r	.	2r	.	(4cc\	Sua-	4e	pp	(4cc	pp
8C/	.	.	.	.	.	.	.	.	.	.	.	.	.	.	.	.	.	.
8C/	.	.	(16eLL	.	16cc\LL	.	.	.	.	.	.	.	16cc\LL	.	(16eLL	.	16ccLL	.
.	.	.	32gL	.	32ee\L	.	.	.	.	.	.	.	32ee\L)	.	32gL	.	32eeL	.
.	.	.	32fJJJ	.	32dd\JJJ)	.	.	.	.	.	.	.	32dd\JJJ	.	32fJJJ)	.	32ddJJJ)	.
.	16qqff/	.	16qqa	.	16qqff/	.	.	.	.	.	.	.	16qqa/	.	16qqa	.	16qqff/	.
8C/J	.	.	16gLL	.	16ee\LL	.	.	.	.	.	.	.	16ee\	-vis	16gLL	.	16eeLL	.
.	.	.	32fL)	.	32dd\L	.	.	.	.	.	.	.	32dd\LLL	est	32fL	.	32ddL	.
.	.	.	32eJJJ	.	32cc\JJJ	.	.	.	.	.	.	.	32cc\JJJ	.	32eJJJ	.	32ccJJJ	.
=8	=8	=8	=8	=8	=8	=8	=8	=8	=8	=8	=8	=8	=8	=8	=8	=8	=8	=8
!LO:TX:t=P:problem=mixedbeam	!	!	!	!	!	!	!	!	!	!	!	!	!	!	!	!	!	!
8G\L	.	.	8.dL	.	(8.b\L	.	4r	.	4r	.	4r	.	8.b\	-Do	16dLL	.	8.bL	.
.	.	.	.	.	.	.	.	.	.	.	.	.	.	.	32eL	.	.	.
.	.	.	.	.	.	.	.	.	.	.	.	.	.	.	32fJJ	.	.	.
8GG/J	.	.	.	.	.	.	.	.	.	.	.	.	.	.	8eJ	.	.	.
.	.	.	32eLL	.	32cc\LL	.	.	.	.	.	.	.	32cc\LLL	-mi	.	.	32ccLL	.
.	.	.	32fJJJ	.	32dd\JJJ)	.	.	.	.	.	.	.	32dd\JJJ	.	.	.	32ddJJJ	.
!	!	!	!LO:TX:a:t=P:problem=mixed beam	!	!	!	!	!	!	!	!	!	!	!	!	!	!	!
8C/	.	f	16eKL/	.	8cc\L	.	8r	.	8r	.	8r	.	8cc\	ne	8r	.	8cc	.
.	.	.	8cc\	.	.	.	.	.	.	.	.	.	.	.	.	.	.	.
!	!	!	!	!	!	!	!LO:TX:a:t=Sol.	!	!	!	!	!	!	!	!	!	!	!
8E\	.	.	.	.	32gg\LL	.	8E	Spii-	8G	-Spi-	8cc	Spi-	8cc\	-Spi	8r	.	16r	.
.	.	.	.	.	32aa\	.	.	.	.	.	.	.	.	.	.	.	.	.
.	.	.	16ccJk\	.	32bb\	.	.	.	.	.	.	.	.	.	.	.	16r	.
.	.	.	.	.	32ccc\JJJ	.	.	.	.	.	.	.	.	.	.	.	.	.
=9	=9	=9	=9	=9	=9	=9	=9	=9	=9	=9	=9	=9	=9	=9	=9	=9	=9	=9
!	!	!	!	!	!	!	!	!	!	!	!	!	!	!	!LO:TX:a:t=2	!	!LO:TX:a:t=2	!
!	!	!	!	!	!	!	!	!	!	!	!	!	!	!	!LO:N:vis=0	!	!LO:N:vis=0	!
8F\L	.	.	32ccLLL	.	32aa\LLL	f	8F	-ri-	8AL/	-ri-	8a	-ri-	(8cc\	-ri	1r	.	1r	.
.	.	.	32cc	.	32aa\	.	.	.	.	.	.	.	.	.	.	.	.	.
.	.	.	32aa	.	32ccc\	.	.	.	.	.	.	.	.	.	.	.	.	.
.	.	.	32aaJJJ	.	32ccc\JJJ	.	.	.	.	.	.	.	.	.	.	.	.	.
!	!	!	!	!	!LO:LB:g=original	!	!	!	!	!	!	!	!	!	!	!	!	!
8F\J	.	.	32ffLLL	.	32aa\LLL	.	8F	-tus	8AJ	-tus	8f	-tus	8dd\	tus	.	.	.	.
.	.	.	32ff	.	32aa\	.	.	.	.	.	.	.	.	.	.	.	.	.
.	.	.	32dd	.	32ff\	.	.	.	.	.	.	.	.	.	.	.	.	.
.	.	.	32ddJJJ	.	32ff\JJJ	.	.	.	.	.	.	.	.	.	.	.	.	.
8G\L	.	.	32ccLLL	.	32ee\LLL	.	4G	tu-	4G	tu-	8eL	tu-	8cc\	.	.	.	.	.
.	.	.	32cc	.	32ee\	.	.	.	.	.	.	.	.	.	.	.	.	.
.	.	.	32ee	.	32ccc\	.	.	.	.	.	.	.	.	.	.	.	.	.
.	.	.	32eeJJJ	.	32ccc\JJJ	.	.	.	.	.	.	.	.	.	.	.	.	.
!LO:TX:t=P:problem=mixedbeam	!	!	!	!	!	!	!	!	!	!	!	!	!	!	!	!	!	!
8GG/J	.	.	32bLLL	.	32dd\LLL	.	.	.	.	.	8dJ	.	8b\)	tu-	.	.	.	.
.	.	.	32b	.	32dd\	.	.	.	.	.	.	.	.	.	.	.	.	.
.	.	.	32dd	.	32bb\	.	.	.	.	.	.	.	.	.	.	.	.	.
.	.	.	32ddJJJ	.	32bb\JJJ	.	.	.	.	.	.	.	.	.	.	.	.	.
=10	=10	=10	=10	=10	=10	=10	=10	=10	=10	=10	=10	=10	=10	=10	=10	=10	=10	=10
!	!	!	!LO:LB:g=original	!	!	!	!	!	!	!	!	!	!	!	!	!	!	!
!	!	!	!LO:TX:a:t=P:problem=mixed beam	!	!	!	!	!	!	!	!	!	!	!	!	!	!	!
4C/	.	.	8cL 8g 8ee\	.	8cc\L	.	4C	-us	4G	-us	4e	-us	4cc\	-us	.	.	.	.
.	.	.	16cccL/	.	16ccc\L	.	.	.	.	.	.	.	.	.	.	.	.	.
.	.	.	16ggJJ/	.	16gg\JJ	.	.	.	.	.	.	.	.	.	.	.	.	.
4r	.	.	16eeLL\	.	16ee\LL	.	4r	.	4r	.	4r	.	4r	.	.	.	.	.
.	.	.	16cc	.	16cc\	.	.	.	.	.	.	.	.	.	.	.	.	.
.	.	.	16g	.	16g\	.	.	.	.	.	.	.	.	.	.	.	.	.
.	.	.	16eJJ	.	16e\JJ	.	.	.	.	.	.	.	.	.	.	.	.	.
=11	=11	=11	=11	=11	=11	=11	=11	=11	=11	=11	=11	=11	=11	=11	=11	=11	=11	=11
*	*	*	*	*	*	*	*	*	*	*	*	*	*	*	*	*	*2\right	*
8c\L	.	.	32gLLL	.	16c/LL	.	4c	O	4G	O	4.g	O-	4.ee\	O	2g	.	2ee	.
.	.	.	32g	.	.	.	.	.	.	.	.	.	.	.	.	.	.	.
.	.	.	32g	.	16e/	.	.	.	.	.	.	.	.	.	.	.	.	.
.	.	.	32gJJJ	.	.	.	.	.	.	.	.	.	.	.	.	.	.	.
*	*	*	*tremolo	*	*	*	*	*	*	*	*	*	*	*	*	*	*	*
8c\	.	.	32gLLL	.	16g/	.	.	.	.	.	.	.	.	.	.	.	.	.
.	.	.	32g	.	.	.	.	.	.	.	.	.	.	.	.	.	.	.
.	.	.	32g	.	16cc/JJ	.	.	.	.	.	.	.	.	.	.	.	.	.
.	.	.	32gJJJ	.	.	.	.	.	.	.	.	.	.	.	.	.	.	.
8c\	.	.	32gLLL	.	16ee\LL	.	4c	quam	4G	quam	.	.	.	.	.	.	.	.
.	.	.	32g	.	.	.	.	.	.	.	.	.	.	.	.	.	.	.
.	.	.	32g	.	16cc\	.	.	.	.	.	.	.	.	.	.	.	.	.
.	.	.	32gJJJ	.	.	.	.	.	.	.	.	.	.	.	.	.	.	.
8c\J	.	.	32gLLL	.	16gg\	.	.	.	.	.	8g	-quam	8ee\	quam	.	.	.	.
.	.	.	32g	.	.	.	.	.	.	.	.	.	.	.	.	.	.	.
.	.	.	32g	.	16ee\JJ	.	.	.	.	.	.	.	.	.	.	.	.	.
.	.	.	32gJJJ	.	.	.	.	.	.	.	.	.	.	.	.	.	.	.
=12	=12	=12	=12	=12	=12	=12	=12	=12	=12	=12	=12	=12	=12	=12	=12	=12	=12	=12
*tremolo	*	*	*	*	*	*	*	*	*	*	*	*	*	*	*	*	*	*
*2\right	*	*	*	*	*	*	*	*	*	*	*	*	*	*	*	*	*	*
8B\L	6	.	32gLLL	.	16dd\LL	.	4B	Sua-	4G	Sua-	4g	Sua-	4dd\	Sua-	2g	.	2dd	.
.	.	.	32g	.	.	.	.	.	.	.	.	.	.	.	.	.	.	.
.	.	.	32g	.	16b\	.	.	.	.	.	.	.	.	.	.	.	.	.
.	.	.	32g	.	.	.	.	.	.	.	.	.	.	.	.	.	.	.
8B\	.	.	32g	.	16bb\	.	.	.	.	.	.	.	.	.	.	.	.	.
.	.	.	32g	.	.	.	.	.	.	.	.	.	.	.	.	.	.	.
.	.	.	32g	.	16gg\JJ	.	.	.	.	.	.	.	.	.	.	.	.	.
.	.	.	32g	.	.	.	.	.	.	.	.	.	.	.	.	.	.	.
8B\	.	.	32g	.	16dd\LL	.	8B	-vis	8G	-vis	8g	-vis	8dd\	-vis	.	.	.	.
.	.	.	32g	.	.	.	.	.	.	.	.	.	.	.	.	.	.	.
.	.	.	32g	.	16b\	.	.	.	.	.	.	.	.	.	.	.	.	.
.	.	.	32g	.	.	.	.	.	.	.	.	.	.	.	.	.	.	.
8B\J	.	.	32g	.	16g\	.	8B	est	8G	est	8g	est	8dd\	est	.	.	.	.
.	.	.	32g	.	.	.	.	.	.	.	.	.	.	.	.	.	.	.
.	.	.	32g	.	16d\JJ	.	.	.	.	.	.	.	.	.	.	.	.	.
.	.	.	32gJJJ	.	.	.	.	.	.	.	.	.	.	.	.	.	.	.
*Xtremolo	*	*	*Xtremolo	*	*	*	*	*	*	*	*	*	*	*	*	*	*	*
=13	=13	=13	=13	=13	=13	=13	=13	=13	=13	=13	=13	=13	=13	=13	=13	=13	=13	=13
!LO:LB:g=original	!	!	!	!	!	!	!LO:LB:g=original	!	!	!	!	!	!	!	!	!	!	!
*	*	*	*	*	*Xtuplet	*	*	*	*	*	*	*	*	*	*	*	*	*
8A\L	7	.	16gKL	.	24c/LL	.	4A	Do-	4.A/	Do-	(4g	Do-	4.cc\	Do-	4g	.	4.cc	.
.	.	.	.	.	24d/	.	.	.	.	.	.	.	.	.	.	.	.	.
.	.	.	8g	.	.	.	.	.	.	.	.	.	.	.	.	.	.	.
.	.	.	.	.	24c/JJ	.	.	.	.	.	.	.	.	.	.	.	.	.
8A\	.	.	.	.	24c/LL	.	.	.	.	.	.	.	.	.	.	.	.	.
.	.	.	.	.	24d/	.	.	.	.	.	.	.	.	.	.	.	.	.
.	.	.	16gJk	.	.	.	.	.	.	.	.	.	.	.	.	.	.	.
.	.	.	.	.	24c/JJ	.	.	.	.	.	.	.	.	.	.	.	.	.
8D\	#	.	16f#XKL	.	24c/LL	.	4D	-mi-	.	.	8.f#X	.	.	.	4f#X	.	.	.
.	.	.	.	.	24d/	.	.	.	.	.	.	.	.	.	.	.	.	.
.	.	.	8f#	.	.	.	.	.	.	.	.	.	.	.	.	.	.	.
.	.	.	.	.	24c/JJ	.	.	.	.	.	.	.	.	.	.	.	.	.
8D\J	.	.	.	.	24c/LL	.	.	.	8A/	-mi-	.	.	8cc\	-mi-	.	.	8cc	.
.	.	.	.	.	24d/	.	.	.	.	.	.	.	.	.	.	.	.	.
.	.	.	16f#Jk	.	.	.	.	.	.	.	16f#)	-mi-	.	.	.	.	.	.
.	.	.	.	.	24c/JJ	.	.	.	.	.	.	.	.	.	.	.	.	.
=14	=14	=14	=14	=14	=14	=14	=14	=14	=14	=14	=14	=14	=14	=14	=14	=14	=14	=14
!	!	!	!	!	!	!	!	!	!	!	!LO:LB:g=original	!	!	!	!	!	!	!
8G\L	.	.	16gKL	.	24B/LL	.	4G	-ne	4Bn	-ne	4g	-ne	4b\	-ne	2g	.	8bL	.
.	.	.	.	.	24c/	.	.	.	.	.	.	.	.	.	.	.	.	.
.	.	.	8g	.	.	.	.	.	.	.	.	.	.	.	.	.	.	.
.	.	.	.	.	24B/JJ	.	.	.	.	.	.	.	.	.	.	.	.	.
8G\	.	.	.	.	24d/LL	.	.	.	.	.	.	.	.	.	.	.	8bJ	.
.	.	.	.	.	24e/	.	.	.	.	.	.	.	.	.	.	.	.	.
.	.	.	8g	.	.	.	.	.	.	.	.	.	.	.	.	.	.	.
.	.	.	.	.	24d/JJ	.	.	.	.	.	.	.	.	.	.	.	.	.
!	!	!	!	!	!LO:LB:g=original	!	!	!	!	!	!	!	!	!	!	!	!	!
8B\	.	.	.	.	24g/LL	.	8r	.	4r	.	8r	.	8r	.	.	.	4dd	.
.	.	.	.	.	24a/	.	.	.	.	.	.	.	.	.	.	.	.	.
.	.	.	8g	.	.	.	.	.	.	.	.	.	.	.	.	.	.	.
.	.	.	.	.	24g/JJ	.	.	.	.	.	.	.	.	.	.	.	.	.
8B\J	.	.	.	.	24b/LL	.	8B	Spi-	.	.	8g	Spi-	8dd\	Spi-	.	.	.	.
.	.	.	.	.	24cc/	.	.	.	.	.	.	.	.	.	.	.	.	.
.	.	.	16gJk	.	.	.	.	.	.	.	.	.	.	.	.	.	.	.
.	.	.	.	.	24b/JJ	.	.	.	.	.	.	.	.	.	.	.	.	.
=15	=15	=15	=15	=15	=15	=15	=15	=15	=15	=15	=15	=15	=15	=15	=15	=15	=15	=15
!	!	!	!	!	!	!	!	!	!LO:LB:g=original	!	!	!	!	!	!	!	!	!
8A\L	.	.	16f#XLL	.	24cc\LL	.	8A	-ri-	8c	Spi-	8a	-ri-	8dd\	-ri	4.f#X	.	2ddd	.
.	.	.	.	.	24dd\	.	.	.	.	.	.	.	.	.	.	.	.	.
.	.	.	16d	.	.	.	.	.	.	.	.	.	.	.	.	.	.	.
.	.	.	.	.	24cc\JJ	.	.	.	.	.	.	.	.	.	.	.	.	.
8A\	.	.	16f#	.	24cc\LL	.	8A	-tus	8c	-ri-	8a	-tus	8dd\	tus	.	.	.	.
.	.	.	.	.	24dd\	.	.	.	.	.	.	.	.	.	.	.	.	.
.	.	.	16dJJ	.	.	.	.	.	.	.	.	.	.	.	.	.	.	.
.	.	.	.	.	24cc\JJ	.	.	.	.	.	.	.	.	.	.	.	.	.
8D\	.	.	16aLL	.	24cc\LL	.	4D	tu-	8c	-tus	4a	tu-	4dd\	-tu	.	.	.	.
.	.	.	.	.	24dd\	.	.	.	.	.	.	.	.	.	.	.	.	.
.	.	.	16d	.	.	.	.	.	.	.	.	.	.	.	.	.	.	.
.	.	.	.	.	24cc\JJ	.	.	.	.	.	.	.	.	.	.	.	.	.
8D\J	.	.	16a	.	24cc\LL	.	.	.	8c	tu-	.	.	.	.	8a	.	.	.
.	.	.	.	.	24dd\	.	.	.	.	.	.	.	.	.	.	.	.	.
.	.	.	16dJJ	.	.	.	.	.	.	.	.	.	.	.	.	.	.	.
.	.	.	.	.	24cc\JJ	.	.	.	.	.	.	.	.	.	.	.	.	.
=16	=16	=16	=16	=16	=16	=16	=16	=16	=16	=16	=16	=16	=16	=16	=16	=16	=16	=16
*	*	*	*Xtuplet	*	*	*	*	*	*	*	*	*	*	*	*	*	*	*
8G\L	.	.	24gLL	.	24b\LL	.	4G	-us	4B	-us	4g	-us	4dd\	us	4b	.	2ddd	.
.	.	.	24a	.	24cc\	.	.	.	.	.	.	.	.	.	.	.	.	.
.	.	.	24gJJ	.	24b\JJ	.	.	.	.	.	.	.	.	.	.	.	.	.
8G\	.	.	24bLL	.	24dd\LL	.	.	.	.	.	.	.	.	.	.	.	.	.
.	.	.	24cc	.	24ee\	.	.	.	.	.	.	.	.	.	.	.	.	.
.	.	.	24bJJ	.	24dd\JJ	.	.	.	.	.	.	.	.	.	.	.	.	.
8B\	.	.	24ggLL	.	24gg\LL	.	8r	.	8r	.	8r	.	8r	.	8ggL	.	.	.
.	.	.	24aa	.	24aa\	.	.	.	.	.	.	.	.	.	.	.	.	.
.	.	.	24ggJ	.	24gg\JJ	.	.	.	.	.	.	.	.	.	.	.	.	.
!	!	!	!LO:LB:g=original	!	!	!	!	!	!	!	!	!	!	!	!	!	!	!
8B\J	.	.	[8dddJ	.	24ff\LL	.	8B	qui	8d	qui	8fn	qui	8dd\	qui	(<8ffnJ	.	.	.
.	.	.	.	.	24gg\	.	.	.	.	.	.	.	.	.	.	.	.	.
.	.	.	.	.	24ff\JJ	.	.	.	.	.	.	.	.	.	.	.	.	.
=17	=17	=17	=17	=17	=17	=17	=17	=17	=17	=17	=17	=17	=17	=17	=17	=17	=17	=17
8c\L	7 3	.	8dddL]	.	24ee\LL	.	(8cL	ut	8dL	ut	4e	ut	(8dd\L	ut	4ee)	.	8dddL	.
.	.	.	.	.	24ff\	.	.	.	.	.	.	.	.	.	.	.	.	.
.	.	.	.	.	24ee\JJ	.	.	.	.	.	.	.	.	.	.	.	.	.
8A\J	3	.	[8cccJ	.	24ccc\LL	.	8AJ)	.	8cJ	.	.	.	8cc\J	.	.	.	8cccJ	.
.	.	.	.	.	24ee\	.	.	.	.	.	.	.	.	.	.	.	.	.
.	.	.	.	.	24ccc\JJ	.	.	.	.	.	.	.	.	.	.	.	.	.
8B\L	9	.	8cccL]	.	24dd\LL	.	(8BL	Dul-	8cL	Dul-	4d	dul-	8cc\L)	-dul-	4dd	.	8cccL	.
.	.	.	.	.	24ee\	.	.	.	.	.	.	.	.	.	.	.	.	.
.	.	.	.	.	24dd\JJ	.	.	.	.	.	.	.	.	.	.	.	.	.
8G\J	3	.	[8bbJ	.	8bb\	.	8GJ)	.	8BJ	.	.	.	8b\J	.	.	.	[<8bbJ	.
=18	=18	=18	=18	=18	=18	=18	=18	=18	=18	=18	=18	=18	=18	=18	=18	=18	=18	=18
!	!	!	!	!	!	!	!	!	!	!	!	!	!LO:LB:g=original	!	!	!	!	!
8A\L	3	.	8bbL]	.	24cc\LL	.	8.AL	-ce-	(8BL	-ce-	8.c	-ce-	8.b\L	.	4cc	.	8bbL]	.
.	.	.	.	.	24dd\	.	.	.	.	.	.	.	.	.	.	.	.	.
.	.	.	.	.	24cc\JJ	.	.	.	.	.	.	.	.	.	.	.	.	.
!	!	!	!	!	!	!	!	!	!	!	!	!	!	!	!	!	!LO:LB:g=original	!
*	*	*	*	*	*	*	*	*	*tremolo	*	*	*	*	*	*	*	*	*
8F#X\J	9	.	8aaJ	.	24aa\LL	.	.	.	16AL)	.	.	.	.	.	.	.	8aaJ	.
.	.	.	.	.	24cc\	.	.	.	.	.	.	.	.	.	.	.	.	.
.	.	.	.	.	.	.	16F#X	-du-	16AJJ	-di-	16c	-di-	32a\Jkk	-ce	.	.	.	.
.	.	.	.	.	24aa\JJ	.	.	.	.	.	.	.	.	.	.	.	.	.
.	.	.	.	.	.	.	.	.	.	.	.	.	32a\	-di-	.	.	.	.
*	*	*	*	*	*	*	*	*	*Xtremolo	*	*	*	*	*	*	*	*	*
!	!	!	!	!	!	!	!	!	!LO:N:vis=8	!	!	!	!	!	!	!	!	!
!	!	!	!	!	!	!	!	!	!	!	!	!	!	!	!	!	!LO:LB:g=original	!
8G\L	3	.	8aaL	.	24b\LL	.	8G	-nem	16A	-ne	8B	-nem	8a\	-nem	4b	.	8aaL	.
.	.	.	.	.	24cc\	.	.	.	.	.	.	.	.	.	.	.	.	.
!	!	!	!	!	!	!	!	!	!LO:N:vis=8	!	!	!	!	!	!	!	!	!
.	.	.	.	.	.	.	.	.	16A/	.	.	.	.	.	.	.	.	.
.	.	.	.	.	24b\JJ	.	.	.	.	.	.	.	.	.	.	.	.	.
8E\J	3	.	8ggJ	.	24gg\LL	.	8E	dul-	8BJ/	dul-	8g	dul-	8g/	-dul-	.	.	8ggJ	.
.	.	.	.	.	24b\	.	.	.	.	.	.	.	.	.	.	.	.	.
.	.	.	.	.	24gg\JJ	.	.	.	.	.	.	.	.	.	.	.	.	.
=19	=19	=19	=19	=19	=19	=19	=19	=19	=19	=19	=19	=19	=19	=19	=19	=19	=19	=19
!	!	!	!	!	!LO:LB:g=original	!	!	!	!	!	!	!	!	!	!LO:LB:g=original	!	!	!
8C/L	6_ 5	.	16aKL	.	24gg\LL	.	8.C	-ce-	8.A	-ce-	8.g	-ce-	8.gg\	-ce-	4a\	.	[<2gg	.
.	.	.	.	.	24a\	.	.	.	.	.	.	.	.	.	.	.	.	.
.	.	.	8a	.	.	.	.	.	.	.	.	.	.	.	.	.	.	.
.	.	.	.	.	24gg\JJ	.	.	.	.	.	.	.	.	.	.	.	.	.
8C/	.	.	.	.	24gg\LL	.	.	.	.	.	.	.	.	-di-	.	.	.	.
.	.	.	.	.	24a\	.	.	.	.	.	.	.	.	.	.	.	.	.
!	!	!	!	!	!	!	!LO:LB:g=original	!	!	!	!	!	!	!	!	!	!	!
.	.	.	16aJk	.	.	.	16C	-di-	16A	-di-	16g	-di-	16gg\	.	.	.	.	.
.	.	.	.	.	24gg\JJ	.	.	.	.	.	.	.	.	.	.	.	.	.
8D/	.	.	16bKL	.	24gg\LL	.	4D/	-nem	4B	-nem	4g	-nem	4gg\	-nem	4b	.	.	.
.	.	.	.	.	24b\	.	.	.	.	.	.	.	.	.	.	.	.	.
.	.	.	8b/	.	.	.	.	.	.	.	.	.	.	.	.	.	.	.
.	.	.	.	.	24gg\JJ	.	.	.	.	.	.	.	.	.	.	.	.	.
8D/J	.	.	.	.	24gg\LL	.	.	.	.	.	.	.	.	.	.	.	.	.
.	.	.	.	.	24b\	.	.	.	.	.	.	.	.	.	.	.	.	.
.	.	.	16bJk	.	.	.	.	.	.	.	.	.	.	.	.	.	.	.
.	.	.	.	.	24gg\JJ	.	.	.	.	.	.	.	.	.	.	.	.	.
=20	=20	=20	=20	=20	=20	=20	=20	=20	=20	=20	=20	=20	=20	=20	=20	=20	=20	=20
8E\L	.	.	16ccKL/	.	24gg\LL	.	4E/	tu-	4cn	tu-	4g	tu-	4gg\	tu-	4cc	.	2gg]	.
.	.	.	.	.	24cc\	.	.	.	.	.	.	.	.	.	.	.	.	.
.	.	.	8cc	.	.	.	.	.	.	.	.	.	.	.	.	.	.	.
.	.	.	.	.	24gg\JJ	.	.	.	.	.	.	.	.	.	.	.	.	.
8E\J	.	.	.	.	24gg\LL	.	.	.	.	.	.	.	.	.	.	.	.	.
.	.	.	.	.	24cc\	.	.	.	.	.	.	.	.	.	.	.	.	.
.	.	.	16ccJk	.	.	.	.	.	.	.	.	.	.	.	.	.	.	.
.	.	.	.	.	24gg\JJ	.	.	.	.	.	.	.	.	.	.	.	.	.
!LO:LB:g=original	!	!	!	!	!	!	!	!	!	!	!	!	!	!	!	!	!	!
8D\L	.	.	16bKL/	.	24gg\LL	.	8D/	-am	8B	-am	8g	-am	8gg\	-am	4b	.	.	.
.	.	.	.	.	24b\	.	.	.	.	.	.	.	.	.	.	.	.	.
.	.	.	8b	.	.	.	.	.	.	.	.	.	.	.	.	.	.	.
.	.	.	.	.	24gg\JJ	.	.	.	.	.	.	.	.	.	.	.	.	.
8D\J	.	.	.	.	24gg\LL	.	8D/	in	8B	in	8g	in	8gg\	in	.	.	.	.
.	.	.	.	.	24b\	.	.	.	.	.	.	.	.	.	.	.	.	.
.	.	.	16bJk	.	.	.	.	.	.	.	.	.	.	.	.	.	.	.
.	.	.	.	.	24gg\JJ	.	.	.	.	.	.	.	.	.	.	.	.	.
=21	=21	=21	=21	=21	=21	=21	=21	=21	=21	=21	=21	=21	=21	=21	=21	=21	=21	=21
!	!	!	!	!	!	!	!	!	!LO:LB:g=original	!	!	!	!	!	!	!	!	!
*	*	*	*	*	*	*	*	*	*	*	*	*	*	*	*2\right	*	*	*
8C/L	6 5	.	16aKL	.	24gg\LL	.	4.C	fi-	4.A	fi-	4.e	fi-	4.gg\	fi	2a\	.	2gg	.
.	.	.	.	.	24a\	.	.	.	.	.	.	.	.	.	.	.	.	.
.	.	.	8a	.	.	.	.	.	.	.	.	.	.	.	.	.	.	.
.	.	.	.	.	24gg\JJ	.	.	.	.	.	.	.	.	.	.	.	.	.
8C/	.	.	.	.	24gg\LL	.	.	.	.	.	.	.	.	.	.	.	.	.
.	.	.	.	.	24a\	.	.	.	.	.	.	.	.	.	.	.	.	.
.	.	.	16aJk	.	.	.	.	.	.	.	.	.	.	.	.	.	.	.
.	.	.	.	.	24gg\JJ	.	.	.	.	.	.	.	.	.	.	.	.	.
8C#X/	_	.	16aKL	.	24gg\LL	.	.	.	.	.	.	.	.	.	.	.	.	.
.	.	.	.	.	24a\	.	.	.	.	.	.	.	.	.	.	.	.	.
.	.	.	8a	.	.	.	.	.	.	.	.	.	.	.	.	.	.	.
.	.	.	.	.	24gg\JJ	.	.	.	.	.	.	.	.	.	.	.	.	.
8C#/J	.	.	.	.	24gg\LL	.	8C#X	-li-	8A	-li-	8e	-li-	8gg\	li	.	.	.	.
.	.	.	.	.	24a\	.	.	.	.	.	.	.	.	.	.	.	.	.
.	.	.	16aJk	.	.	.	.	.	.	.	.	.	.	.	.	.	.	.
.	.	.	.	.	24gg\JJ	.	.	.	.	.	.	.	.	.	.	.	.	.
=22	=22	=22	=22	=22	=22	=22	=22	=22	=22	=22	=22	=22	=22	=22	=22	=22	=22	=22
!	!	!	!	!	!	!	!	!	!	!	!LO:LB:g=original	!	!	!	!	!	!	!
4D/	#	.	4d 4a	.	4d/ 4a 4ff#X	.	8D	-os	4A	-os	4d	-o	4ff#X\	os	4a	.	4ff#X	.
.	.	.	.	.	.	.	8DL	de-	.	.	.	.	.	.	.	.	.	.
4r	.	.	4r	.	4r	.	8F#XJ	.	4r	.	4r	.	4r	.	4r	.	4r	.
.	.	.	.	.	.	.	8A	-mon-	.	.	.	.	.	.	.	.	.	.
=23	=23	=23	=23	=23	=23	=23	=23	=23	=23	=23	=23	=23	=23	=23	=23	=23	=23	=23
*tremolo	*	*	*	*	*	*	*2\right	*	*	*	*	*	*	*	*	*	*	*
!	!	!	!	!	!	!LO:DY:t=for	!	!	!	!	!	!	!	!	!	!	!	!
8cn\L	4 2	.	24ddLL	.	24ff#X\LL	f	2cn	-stra-	8d	De-	8a	de-	8ff#X\	de-	2dd	f ???	2ff#X	f
.	.	.	24dd	.	24ff#\	.	.	.	.	.	.	.	.	.	.	.	.	.
.	.	.	24ddJJ	.	24ff#\JJ	.	.	.	.	.	.	.	.	.	.	.	.	.
*	*	*	*tremolo	*	*	*	*	*	*	*	*	*	*	*	*	*	*	*
*	*	*	*tuplet	*	*	*	*	*	*	*	*	*	*	*	*	*	*	*
8c\	.	.	24ddLL	.	24ff#\LL	.	.	.	8d	-mon-	8a	-mon-	8ff#\	-mon-	.	.	.	.
.	.	.	24dd	.	24ff#\	.	.	.	.	.	.	.	.	.	.	.	.	.
.	.	.	24ddJJ	.	24ff#\JJ	.	.	.	.	.	.	.	.	.	.	.	.	.
*	*	*	*Xtremolo	*	*	*	*	*	*	*	*	*	*	*	*	*	*	*
*	*	*	*Xtuplet	*	*	*	*	*	*	*	*	*	*	*	*	*	*	*
8c\	.	.	24ddLL	.	24ff#\LL	.	.	.	4d	-stra-	4a	-stra-	4ff#\	-stra-	.	.	.	.
.	.	.	24dd	.	24ff#\	.	.	.	.	.	.	.	.	.	.	.	.	.
.	.	.	24ddJJ	.	24ff#\JJ	.	.	.	.	.	.	.	.	.	.	.	.	.
*	*	*	*tremolo	*	*	*	*	*	*	*	*	*	*	*	*	*	*	*
*	*	*	*tuplet	*	*	*	*	*	*	*	*	*	*	*	*	*	*	*
8c\J	.	.	24ddLL	.	24ff#\LL	.	.	.	.	.	.	.	.	.	.	.	.	.
.	.	.	24dd	.	24ff#\	.	.	.	.	.	.	.	.	.	.	.	.	.
.	.	.	24ddJJ	.	24ff#\JJ	.	.	.	.	.	.	.	.	.	.	.	.	.
*Xtremolo	*	*	*Xtremolo	*	*	*	*	*	*	*	*	*	*	*	*	*	*	*
*	*	*	*Xtuplet	*	*	*	*	*	*	*	*	*	*	*	*	*	*	*
=24	=24	=24	=24	=24	=24	=24	=24	=24	=24	=24	=24	=24	=24	=24	=24	=24	=24	=24
!	!	!	!LO:LB:g=original	!	!LO:LB:g=original	!	!	!	!	!	!	!	!	!	!	!	!	!
!	!	!	!	!	!	!	!	!	!	!	!	!	!LO:LB:g=original	!	!	!	!	!
4B\	6	.	16ddLL	.	16gg'\LL	.	4Bn	-res	4d	-res	4g	-res	4gg\	-res	4dd	.	4gg	.
.	.	.	16b	.	16dd'\	.	.	.	.	.	.	.	.	.	.	.	.	.
.	.	.	16cc	.	16ee'\	.	.	.	.	.	.	.	.	.	.	.	.	.
.	.	.	16ddJJ	.	16ff'\JJ	.	.	.	.	.	.	.	.	.	.	.	.	.
4r	.	.	16eeLL	.	16gg'\LL	.	4r	.	4r	.	4r	.	4r	.	4r	.	4r	.
.	.	.	16ff	.	16aa'\	.	.	.	.	.	.	.	.	.	.	.	.	.
.	.	.	16gg	.	16bb'\	.	.	.	.	.	.	.	.	.	.	.	.	.
.	.	.	16aaJJ	.	16ccc'\JJ	.	.	.	.	.	.	.	.	.	.	.	.	.
=25	=25	=25	=25	=25	=25	=25	=25	=25	=25	=25	=25	=25	=25	=25	=25	=25	=25	=25
!	!	!	!	!	!	!	!	!	!	!	!	!	!	!	!LO:TX:a:t=2	!	!LO:TX:a:t=2	!
!	!	!	!	!	!	!	!	!	!	!	!	!	!	!	!LO:N:vis=0	!	!LO:N:vis=0	!
8BBn/L	6	.	16ggLL	<	16ddd\LL	.	4r	.	4r	.	4r	.	4r	.	1r	.	1r	.
.	.	.	16gg	.	16ddd\	.	.	.	.	.	.	.	.	.	.	.	.	.
8BB/	.	.	16gg	.	16ddd\	.	.	.	.	.	.	.	.	.	.	.	.	.
.	.	.	16ggJJ	.	16ddd\JJ	.	.	.	.	.	.	.	.	.	.	.	.	.
*	*	*	*	*	*tremolo	*	*	*	*	*	*	*	*	*	*	*	*	*
8BB/	.	.	16ggLL	.	16ddd\LL	.	8r	.	8r	.	8r	.	8r	.	.	.	.	.
.	.	.	16gg	.	16ddd\	.	.	.	.	.	.	.	.	.	.	.	.	.
8BB/J	.	.	16gg	.	16ddd\	.	8BB	in	8g	in	8g	in	8dd\	il	.	.	.	.
.	.	.	16ggJJ	.	16ddd\JJ	.	.	.	.	.	.	.	.	.	.	.	.	.
*	*	*	*	*	*Xtremolo	*	*	*	*	*	*	*	*	*	*	*	*	*
=26	=26	=26	=26	=26	=26	=26	=26	=26	=26	=26	=26	=26	=26	=26	=26	=26	=26	=26
*tremolo	*	*	*	*	*	*	*	*	*	*	*	*	*	*	*	*	*	*
8C/L	3	.	16ggLL	.	16eee\LL	.	8.C	fi-	8.g	fi-	8.g	fi-	8.ee\	fi-	.	.	.	.
.	.	.	16gg	.	16eee\	.	.	.	.	.	.	.	.	.	.	.	.	.
8C/	.	.	16gg	.	16eee\	.	.	.	.	.	.	.	.	.	.	.	.	.
.	.	.	16ggJJ	.	16eee\JJ	.	16C	-li-	16g	-li-	16g	-li-	16ee\	-li	.	.	.	.
*	*	*	*tremolo	*	*tremolo	*	*	*	*	*	*	*	*	*	*	*	*	*
8C/	.	.	16ggLL	.	16eee\LL	.	4C	-us	4g	-us	4g	-us	4ee\	us	.	.	.	.
.	.	.	16gg	.	16eee\	.	.	.	.	.	.	.	.	.	.	.	.	.
8C/J	.	.	16gg	.	16eee\	.	.	.	.	.	.	.	.	.	.	.	.	.
.	.	.	16ggJJ	.	16eee\JJ	.	.	.	.	.	.	.	.	.	.	.	.	.
*	*	*	*	*	*Xtremolo	*	*	*	*	*	*	*	*	*	*	*	*	*
=27	=27	=27	=27	=27	=27	=27	=27	=27	=27	=27	=27	=27	=27	=27	=27	=27	=27	=27
8D\L	6 4	.	16ggLL	.	16bb\LL	.	4.D/	de-	4.d	de-	4.g	De-	4.b\	-de	2gg	.	2bb	.
.	.	.	16gg	.	16bb\	.	.	.	.	.	.	.	.	.	.	.	.	.
8D\	.	.	16gg	.	16bb\	.	.	.	.	.	.	.	.	.	.	.	.	.
.	.	.	16ggJJ	.	16bb\JJ	.	.	.	.	.	.	.	.	.	.	.	.	.
*	*	*	*	*	*tremolo	*	*	*	*	*	*	*	*	*	*	*	*	*
8D\	.	.	16ggLL	.	16bb\LL	.	.	.	.	.	.	.	.	.	.	.	.	.
.	.	.	16gg	.	16bb\	.	.	.	.	.	.	.	.	.	.	.	.	.
8D\J	.	.	16gg	.	16bb\	.	8D/	-mon-	8d	-mon-	8g	-mon-	8b\	-mon	.	.	.	.
.	.	.	16ggJJ	.	16bb\JJ	.	.	.	.	.	.	.	.	.	.	.	.	.
*	*	*	*	*	*Xtremolo	*	*	*	*	*	*	*	*	*	*	*	*	*
=28	=28	=28	=28	=28	=28	=28	=28	=28	=28	=28	=28	=28	=28	=28	=28	=28	=28	=28
!LO:LB:g=original	!	!	!	!	!	!	!	!	!	!	!	!	!	!	!	!	!	!
*	*	*	*	*	*	*	*	*	*2\right	*	*	*	*2\right	*	*	*	*	*
8GGG/L	5 3	.	16ggLL	.	16aa\LL	.	(<2D/	-stra-	2d	-stra-	4g	-stra-	2a\	-stra-	4gg	.	4aa	.
.	.	.	16gg	.	16aa\	.	.	.	.	.	.	.	.	.	.	.	.	.
8GGG/	.	.	16gg	.	16aa\	.	.	.	.	.	.	.	.	.	.	.	.	.
.	.	.	16ggJJ	.	16aa\JJ	.	.	.	.	.	.	.	.	.	.	.	.	.
*	*	*	*	*	*tremolo	*	*	*	*	*	*	*	*	*	*	*	*	*
8GGG/	.	.	16ff#XLL	.	16aa\LL	.	.	.	.	.	4f#X	.	.	.	4ff#X	.	4aa	.
.	.	.	16ff#X	.	16aa\	.	.	.	.	.	.	.	.	.	.	.	.	.
8GGG/J	.	.	16ff#X	.	16aa\	.	.	.	.	.	.	.	.	.	.	.	.	.
.	.	.	16ff#XJJ	.	16aa\JJ	.	.	.	.	.	.	.	.	.	.	.	.	.
*Xtremolo	*	*	*Xtremolo	*	*Xtremolo	*	*	*	*	*	*	*	*	*	*	*	*	*
=29	=29	=29	=29	=29	=29	=29	=29	=29	=29	=29	=29	=29	=29	=29	=29	=29	=29	=29
8GG/L	.	.	8gg	.	8gg\	p	4G)	-res	4d	-res	4g	-res	4g\	-res	8gg	.	8gg	.
!LO:TX:t=P:problem=mixedbeam	!	!	!	!	!	!	!	!	!	!	!	!	!	!	!	!	!	!
8G\	5 3	.	4g	p ???	4b\	.	.	.	.	.	.	.	.	.	4gg	.	4bb	.
8E\	_	.	.	.	.	.	4r	.	4r	.	4r	.	4r	.	.	.	.	.
8C#X\J	x	.	8g	.	8b\	.	.	.	.	.	.	.	.	.	8gg	.	8bb	.
=30	=30	=30	=30	=30	=30	=30	=30	=30	=30	=30	=30	=30	=30	=30	=30	=30	=30	=30
!	!	!	!	!	!	!	!	!	!LO:LB:g=original	!	!	!	!	!	!	!	!	!
!	!	!	!	!	!	!	!LO:TX:b:t=10	!	!LO:TX:a:t=28	!	!LO:TX:a:t=28.	!	!	!	!	!	!	!
!	!	!	!	!	!	!	!LO:N:vis=00	!	!LO:N:vis=00	!	!LO:N:vis=00	!	!	!	!	!	!	!
4D\	.	.	8gL	.	8b/L	.	0r	.	0r	.	0r	.	0r	.	8ggL	.	8cccL	.
.	.	.	16f#XL	.	16a/L	.	.	.	.	.	.	.	.	.	16ff#XL	.	16aaL	.
.	.	.	16eJJ	.	16g/JJ	.	.	.	.	.	.	.	.	.	16eeJJ	.	16ggJJ	.
!	!	!	!	!	!	!	!	!	!	!	!	!	!	!	!	!	!LO:SIC:o=:v:#dopisany ołówkiem	!
8r	.	.	16dLL	.	16f#X/LL	.	.	.	.	.	.	.	.	.	16ddLL	.	16ffLL	.
.	.	.	16c	.	16e/	.	.	.	.	.	.	.	.	.	16cc	.	16ee	.
8D\	.	.	16B	.	16d/	.	.	.	.	.	.	.	.	.	16b	.	16dd	.
.	.	.	16AJJ	.	16c/JJ	.	.	.	.	.	.	.	.	.	16aJJ	.	16ccJJ	.
=31	=31	=31	=31	=31	=31	=31	=31	=31	=31	=31	=31	=31	=31	=31	=31	=31	=31	=31
!	!	!	!	!	!	!	!	!	!	!	!	!	!	!	!	!	!LO:LB:g=original	!
8G\L	5 3	.	8G	.	8B/	.	.	.	.	.	.	.	.	.	8g\	.	8b/	.
8G\	_	.	4g	.	4b\	.	.	.	.	.	.	.	.	.	4gg	.	4bb	.
8E\	.	.	.	.	.	.	.	.	.	.	.	.	.	.	.	.	.	.
8C#X\J	.	.	8g	.	8b\	.	.	.	.	.	.	.	.	.	8gg	.	8bb	.
=32	=32	=32	=32	=32	=32	=32	=32	=32	=32	=32	=32	=32	=32	=32	=32	=32	=32	=32
!	!	!	!	!	!LO:LB:g=original	!	!	!	!	!	!	!	!	!	!LO:LB:g=original	!	!	!
4D\	.	.	8gL	.	8b\L	.	.	.	.	.	.	.	.	.	8ggL	.	8bbL	.
.	.	.	16f#XL	.	16a\L	.	.	.	.	.	.	.	.	.	16ffL	.	16aaL	.
.	.	.	16eJJ	.	16g\JJ	.	.	.	.	.	.	.	.	.	16eeJJ	.	16ggJJ	.
!	!	!	!LO:LB:g=original	!	!	!	!	!	!	!	!	!	!	!	!	!	!	!
8r	.	.	16dLL	.	16f#X/LL	.	.	.	.	.	.	.	.	.	16ddLL	.	16ff#XLL	.
.	.	.	16c	.	16e/	.	.	.	.	.	.	.	.	.	16cc	.	16ee	.
8D\	.	.	16B	.	16d/	.	.	.	.	.	.	.	.	.	16b	.	16dd	.
.	.	.	16AJJ	.	16c/JJ	.	.	.	.	.	.	.	.	.	16aJJ	.	16ccJJ	.
=33	=33	=33	=33	=33	=33	=33	=33	=33	=33	=33	=33	=33	=33	=33	=33	=33	=33	=33
8G\L	.	.	24GLL	.	24b\LL	.	.	.	.	.	.	.	.	.	8gL\	.	(8bL	.
.	.	.	24b	.	24b\	.	.	.	.	.	.	.	.	.	.	.	.	.
.	.	.	24bJJ	.	24b\JJ	.	.	.	.	.	.	.	.	.	.	.	.	.
8E\	.	.	24bLL/	.	24gg\LL	.	.	.	.	.	.	.	.	.	8bJ	.	8gg	.
.	.	.	24b	.	24gg\	.	.	.	.	.	.	.	.	.	.	.	.	.
.	.	.	24bJJ	.	24gg\JJ	.	.	.	.	.	.	.	.	.	.	.	.	.
8C\	6 5	.	24aLL	.	24gg\LL	.	.	.	.	.	.	.	.	.	4a	.	8gg	.
.	.	.	24a	.	24gg\	.	.	.	.	.	.	.	.	.	.	.	.	.
.	.	.	24aJJ	.	24gg\JJ	.	.	.	.	.	.	.	.	.	.	.	.	.
8D\J	#	.	24aLL	.	24ff\LL	.	.	.	.	.	.	.	.	.	.	.	8ffJ)	.
.	.	.	24a	.	24ff\	.	.	.	.	.	.	.	.	.	.	.	.	.
.	.	.	24aJJ	.	24ff\JJ	.	.	.	.	.	.	.	.	.	.	.	.	.
=34	=34	=34	=34	=34	=34	=34	=34	=34	=34	=34	=34	=34	=34	=34	=34	=34	=34	=34
!	!	!	!	!	!	!	!LO:N:vis=00	!	!LO:N:vis=00	!	!LO:N:vis=00	!	!LO:N:vis=0	!	!	!	!	!
8G\L	3	.	24GLL	.	24b\LL	.	0r	.	0r	.	0r	.	1r	.	8gL	.	(8bL	.
.	.	.	24b	.	24b\	.	.	.	.	.	.	.	.	.	.	.	.	.
.	.	.	24bJJ	.	24b\JJ	.	.	.	.	.	.	.	.	.	.	.	.	.
*	*	*	*	*	*tremolo	*	*	*	*	*	*	*	*	*	*	*	*	*
8E\	.	.	24bLL/	.	24gg;\LL	.	.	.	.	.	.	.	.	.	8bJ	.	8gg	.
.	.	.	24b	.	24gg\	.	.	.	.	.	.	.	.	.	.	.	.	.
.	.	.	24bJJ	.	24gg\JJ	.	.	.	.	.	.	.	.	.	.	.	.	.
8C\	6 5	.	24aLL	.	24gg;\LL	.	.	.	.	.	.	.	.	.	4a	.	8gg	.
.	.	.	24a	.	24gg\	.	.	.	.	.	.	.	.	.	.	.	.	.
.	.	.	24aJJ	.	24gg\JJ	.	.	.	.	.	.	.	.	.	.	.	.	.
8D\J	#	.	24aLL	.	24ff;\LL	.	.	.	.	.	.	.	.	.	.	.	8ffJ)	.
.	.	.	24a	.	24ff\	.	.	.	.	.	.	.	.	.	.	.	.	.
.	.	.	24aJJ	.	24ff\JJ	.	.	.	.	.	.	.	.	.	.	.	.	.
*	*	*	*	*	*Xtremolo	*	*	*	*	*	*	*	*	*	*	*	*	*
=35	=35	=35	=35	=35	=35	=35	=35	=35	=35	=35	=35	=35	=35	=35	=35	=35	=35	=35
!LO:LB:g=original	!	!	!	!	!	!	!	!	!	!	!	!	!	!	!	!	!	!
4GG/	.	.	4G 4d 4b	.	4d/ 4b 4gg	.	.	.	.	.	.	.	.	.	8bL	.	8ggL	.
.	.	.	.	.	.	.	.	.	.	.	.	.	.	.	32ddLL	.	32bbLL	.
.	.	.	.	.	.	.	.	.	.	.	.	.	.	.	32cc	.	32aa	.
.	.	.	.	.	.	.	.	.	.	.	.	.	.	.	32b	.	32gg	.
.	.	.	.	.	.	.	.	.	.	.	.	.	.	.	32ccJJJ	.	32aaJJJ	.
4r	.	.	8r	.	8r	.	.	.	.	.	.	.	.	.	8b	.	8gg	.
.	.	.	(32dLLL	.	(32b/LLL	.	.	.	.	.	.	.	.	.	8r	.	8r	.
.	.	.	32c	.	32a/	.	.	.	.	.	.	.	.	.	.	.	.	.
.	.	.	32B	.	32g/	pp	.	.	.	.	.	.	.	.	.	.	.	.
.	.	.	32cJJJ)	.	32a/JJJ)	.	.	.	.	.	.	.	.	.	.	.	.	.
=36	=36	=36	=36	=36	=36	=36	=36	=36	=36	=36	=36	=36	=36	=36	=36	=36	=36	=36
!	!	!	!	!	!	!	!	!	!	!	!	!	!	!	!LO:TX:a:t=1	!	!LO:TX:a:t=1.	!
8G\L	.	.	8BL/	.	8g/L	.	.	.	.	.	.	.	4dd\	-Pa	2r	.	2r	.
!	!	!	!LO:TX:a:t=P:problem=mixed beam	!	!	!	!	!	!	!	!	!	!	!	!	!	!	!
8G\	.	.	8b\	pp	8dd/	.	.	.	.	.	.	.	.	.	.	.	.	.
8G\	.	.	8b\	.	8dd/	.	.	.	.	.	.	.	(16cc\LL	ne	.	.	.	.
.	.	.	.	.	.	.	.	.	.	.	.	.	16b\JJ	.	.	.	.	.
8G\J	.	.	8bJ	.	8dd/J	.	.	.	.	.	.	.	16a\LL	sua-	.	.	.	.
.	.	.	.	.	.	.	.	.	.	.	.	.	16g\JJ)	.	.	.	.	.
=37	=37	=37	=37	=37	=37	=37	=37	=37	=37	=37	=37	=37	=37	=37	=37	=37	=37	=37
!	!	!	!	!	!	!	!	!	!	!	!	!	!LO:LB:g=original	!	!	!	!	!
8G\L	.	.	8.aL/	.	8.cc\L	.	.	.	.	.	.	.	8.cc\L	-vis	4r	.	4r	.
8G\	6 4	.	.	.	.	.	.	.	.	.	.	.	.	.	.	.	.	.
.	.	.	32bLL	.	32dd\LL	.	.	.	.	.	.	.	32dd\LL	-si	.	.	.	.
.	.	.	32ccJJJ	.	32ee\JJJ	.	.	.	.	.	.	.	32ee\JJJ	.	.	.	.	.
8G\	5 3	.	8b	.	8dd\	.	.	.	.	.	.	.	8dd\	-mo	16r	.	16r	.
.	.	.	.	.	.	.	.	.	.	.	.	.	.	.	16bLL	.	16ggLL	.
8G\J	.	.	8r	.	8r	.	.	.	.	.	.	.	16r	.	16b	.	16gg	.
.	.	.	.	.	.	.	.	.	.	.	.	.	16gg\	de	16bJJ	.	16ggJJ	.
=38	=38	=38	=38	=38	=38	=38	=38	=38	=38	=38	=38	=38	=38	=38	=38	=38	=38	=38
!	!	!	!LO:TX:a:t=2	!	!LO:TX:a:t=1.	!	!LO:N:vis=0	!	!LO:N:vis=00	!	!LO:N:vis=00	!	!	!	!	!	!	!
!	!	!	!LO:N:vis=0	!	!	!	!	!	!	!	!	!	!	!	!	!	!	!
8G\L	.	.	1r	.	2r	.	1r	.	0r	.	0r	.	4gg\	cae-	16bLL	.	16ggLL	.
.	.	.	.	.	.	.	.	.	.	.	.	.	.	.	16ddJ	.	16bbJ	.
8G\	.	.	.	.	.	.	.	.	.	.	.	.	.	.	8bJ	.	[8ggJ	.
*	*	*	*	*	*	*	*	*	*	*	*	*	*Xtuplet	*	*Xtuplet	*	*Xtuplet	*
8G\	.	.	.	.	.	.	.	.	.	.	.	.	24gg\LL	.	24bLL	.	24ggLL]	.
.	.	.	.	.	.	.	.	.	.	.	.	.	24ff#X\	.	24dd	.	24ff#X	.
.	.	.	.	.	.	.	.	.	.	.	.	.	24ee\JJ	.	24ccJJ	.	24eeJJ	.
8G\J	.	.	.	.	.	.	.	.	.	.	.	.	24dd\LL	-lo	24bLL\	.	24ddLL	.
.	.	.	.	.	.	.	.	.	.	.	.	.	24ccn\	.	24a	.	24cc	.
.	.	.	.	.	.	.	.	.	.	.	.	.	24b\JJ	.	24gJJ	.	24bJJ	.
=39	=39	=39	=39	=39	=39	=39	=39	=39	=39	=39	=39	=39	=39	=39	=39	=39	=39	=39
!	!	!	!	!	!LO:LB:g=original	!	!	!	!	!	!	!	!	!	!	!	!LO:LB:g=original	!
8d\L	#	.	.	.	4r	.	.	.	.	.	.	.	8.a\	-prae-	8.f#XL	.	8.aL	.
!LO:TX:t=P:problem=mixedbeam	!	!	!	!	!	!	!	!	!	!	!	!	!	!	!	!	!	!
8D/J	.	.	.	.	.	.	.	.	.	.	.	.	.	.	.	.	.	.
*	*	*	*	*	*	*	*	*	*	*	*	*	*rscale:2	*	*	*	*	*
.	.	.	.	.	.	.	.	.	.	.	.	.	32b\LLL	-sti	32gLL	.	32bLL	.
.	.	.	.	.	.	.	.	.	.	.	.	.	32cc\JJJ	.	32aJJJ	.	32ccJJJ	.
*	*	*	*	*	*	*	*	*	*	*	*	*	*rscale:1	*	*	*	*	*
!	!	!	!	!	!	!	!	!	!	!	!	!	!	!	!LO:LB:g=original	!	!	!
8G\	.	.	.	.	16ddd\LL	mf	.	.	.	.	.	.	8b\	to-	8g	.	8b	.
.	.	.	.	.	16ccc\JJ	.	.	.	.	.	.	.	.	.	.	.	.	.
8r	.	.	.	.	32bb\LLL	.	.	.	.	.	.	.	8dd\	-e-	8r	.	8r	.
.	.	.	.	.	32ccc\	.	.	.	.	.	.	.	.	.	.	.	.	.
.	.	.	.	.	32aa\	.	.	.	.	.	.	.	.	.	.	.	.	.
.	.	.	.	.	32bb\JJJ	.	.	.	.	.	.	.	.	.	.	.	.	.
=40	=40	=40	=40	=40	=40	=40	=40	=40	=40	=40	=40	=40	=40	=40	=40	=40	=40	=40
!	!	!	!LO:LB:g=original	!	!	!	!	!	!	!	!	!	!	!	!	!	!	!
!	!	!	!	!	!	!	!	!	!	!	!	!	!	!	!LO:TX:a:t=4	!	!LO:N:vis=00	!
!	!	!	!	!	!	!	!	!	!	!	!	!	!	!	!LO:N:vis=00	!	!	!
8r	.	.	8r	.	16gg\LL	p	8r	.	.	.	.	.	4.gg\	-su-	0r	.	0r	.
!	!	!	!	!	!LO:TX:t=P:problem=mixedbeam	!	!	!	!	!	!	!	!	!	!	!	!	!
.	.	.	.	.	16g/	.	.	.	.	.	.	.	.	.	.	.	.	.
!	!	!	!	!	!	!	!LO:TX:a:t=Solo	!	!	!	!	!	!	!	!	!	!	!
8GG/L	3	.	8bL	.	16gg\	.	8Bn	E-	.	.	.	.	.	.	.	.	.	.
.	.	.	.	.	16gg\JJ	.	.	.	.	.	.	.	.	.	.	.	.	.
8AA/	3	.	8cc	.	16gg\LL	.	8c	-su-	.	.	.	.	.	.	.	.	.	.
.	.	.	.	.	16gg\	.	.	.	.	.	.	.	.	.	.	.	.	.
8BBn/J	3	.	8ddJ	p ???	16gg\	.	8d	-ri-	.	.	.	.	8gg\	-ri-	.	.	.	.
.	.	.	.	.	16gg\JJ	.	.	.	.	.	.	.	.	.	.	.	.	.
=41	=41	=41	=41	=41	=41	=41	=41	=41	=41	=41	=41	=41	=41	=41	=41	=41	=41	=41
!LO:LB:g=original	!	!	!	!	!	!	!	!	!	!	!	!	!	!	!	!	!	!
4C/	.	.	8.eeL	.	8.gg\L	.	8.eL	-en-	.	.	.	.	8.gg\L	-en-	.	.	.	.
.	.	.	16ffJk	.	16aa\Jk	.	16fJk	.	.	.	.	.	16aa\Jk	.	.	.	.	.
4C/	3	.	16eeLL	.	16gg\LL	.	4e	-tes	.	.	.	.	8gg\	-tes	.	.	.	.
.	.	.	16ee	.	16gg\	.	.	.	.	.	.	.	.	.	.	.	.	.
.	.	.	16ee	.	16gg\	.	.	.	.	.	.	.	8r	.	.	.	.	.
.	.	.	16eeJJ	.	16gg\JJ	.	.	.	.	.	.	.	.	.	.	.	.	.
=42	=42	=42	=42	=42	=42	=42	=42	=42	=42	=42	=42	=42	=42	=42	=42	=42	=42	=42
!	!	!	!	!	!	!	!	!	!LO:N:vis=00	!	!LO:N:vis=00	!	!	!	!	!	!	!
4C/	4 2	.	8.ddL	.	8.ffnT\L	.	4.d	re-	0r	.	0r	.	8.ffn\L	rep-	.	.	.	.
.	.	.	32ccLL	.	32ee\LL	.	.	.	.	.	.	.	32ee\LL	.	.	.	.	.
.	.	.	32ddJJJ	.	32ff\JJJ	.	.	.	.	.	.	.	32ff\JJJ	.	.	.	.	.
4BBn/	6	.	16ddLL	.	8gg\L	.	.	.	.	.	.	.	8gg\	.	.	.	.	.
.	.	.	16g	.	.	.	.	.	.	.	.	.	.	.	.	.	.	.
.	.	.	16dd	.	8ff\J	.	8d	-ples	.	.	.	.	8ff\	-les	.	.	.	.
.	.	.	16ddJJ	.	.	.	.	.	.	.	.	.	.	.	.	.	.	.
=43	=43	=43	=43	=43	=43	=43	=43	=43	=43	=43	=43	=43	=43	=43	=43	=43	=43	=43
4.C/	3	.	8ddL	.	8ff\L	.	8dL	bo-	.	.	.	.	8ff\L	-bo	.	.	.	.
.	.	.	8ccJ	.	8ee\J	.	8cJ	.	.	.	.	.	8ee\J	.	.	.	.	.
.	.	.	16ccKL\	.	16ee\KL	.	4c	-nis	.	.	.	.	4ee\	-nis	.	.	.	.
.	.	.	8g	.	8ee\	.	.	.	.	.	.	.	.	.	.	.	.	.
8BBn/	_	.	.	.	.	.	.	.	.	.	.	.	.	.	.	.	.	.
.	.	.	16g#XJk	.	16ee\Jk	.	.	.	.	.	.	.	.	.	.	.	.	.
=44	=44	=44	=44	=44	=44	=44	=44	=44	=44	=44	=44	=44	=44	=44	=44	=44	=44	=44
!	!	!	!	!	!	!	!LO:LB:g=original	!	!	!	!	!	!	!	!	!	!	!
4AA/	5 3	.	4cc	.	4ee\	p	4c	fa-	.	.	.	.	4ee\	-fa	4cc	.	4ee	p
4AA/	5 3	.	8ddnL	.	8ffn\L	.	8d	-sti	.	.	.	.	8ffn\	-sti	8ddL	.	8ffnL	.
.	.	.	8ccJ	.	8ee\J	.	8c	di-	.	.	.	.	8ee\	-di	8ccJ	.	8eeJ	.
=45	=45	=45	=45	=45	=45	=45	=45	=45	=45	=45	=45	=45	=45	=45	=45	=45	=45	=45
4AA/	4 2	.	8b	.	8dd\	.	4.B	-o-	.	.	.	.	4.dd\	-o-	4.b	.	4.dd	.
.	6	.	4b	.	4dd\	.	.	.	.	.	.	.	.	.	.	.	.	.
4GG#X/	5	.	.	.	.	.	.	.	.	.	.	.	.	.	.	.	.	.
.	.	.	16ccLL	.	16ee\LL	.	16cLL	-sos	.	.	.	.	(16ee\LL	-sos	16ccLL	.	16eeLL	.
.	.	.	16bJJ	.	16dd\JJ	.	16BJJ	.	.	.	.	.	16dd\JJ)	.	16bJJ	.	16ddJJ	.
=46	=46	=46	=46	=46	=46	=46	=46	=46	=46	=46	=46	=46	=46	=46	=46	=46	=46	=46
!	!	!	!	!	!LO:LB:g=original	!	!	!	!	!	!	!	!	!	!	!	!	!
!	!	!	!	!	!	!	!	!	!LO:N:vis=00	!	!LO:N:vis=00	!	!	!	!	!	!	!
8AA/L	3 2	.	8a	.	8cc\	.	4.A	di-	0r	.	0r	.	4.cc\	-di-	2a\	.	2cc	.
8BB/	.	.	4a	.	4cc\	.	.	.	.	.	.	.	.	.	.	.	.	.
8C/	_	.	.	.	.	.	.	.	.	.	.	.	.	.	.	.	.	.
8D/J	.	.	8a	.	8cc\	.	8A	-vi-	.	.	.	.	8cc\	-vi-	.	.	.	.
=47	=47	=47	=47	=47	=47	=47	=47	=47	=47	=47	=47	=47	=47	=47	=47	=47	=47	=47
!	!	!	!	!	!	!	!utti	!	!	!	!	!	!	!	!	!	!	!
8E\L	#	.	8g#XL	.	8b\L	.	8G#X	-tes	.	.	.	.	8b\	-tes	8g#XL	.	8bL	.
8D\	.	.	8g#	.	8bt\	.	8G#	di-	.	.	.	.	8b\	-di	8gg#XJ	.	8bbJ	.
8C\	6	.	8a	.	8cc\	.	8A	-mit-	.	.	.	.	8cc\	-met	8aaL	.	8cccL	.
8BBn\J	6	.	8bJ	.	8dd\J	.	8B	-tens	.	.	.	.	8dd\	tens	8bbJ	.	8dddJ	.
=48	=48	=48	=48	=48	=48	=48	=48	=48	=48	=48	=48	=48	=48	=48	=48	=48	=48	=48
!	!	!	!LO:LB:g=original	!	!	!	!	!	!	!	!	!	!	!	!	!	!	!
8AA/L	.	.	16ccLL	.	16ee\LL	.	4c	di-	.	.	.	.	4ee\	-di	4gg	.	4ccc	.
.	.	.	16cc	.	16aa\	.	.	.	.	.	.	.	.	.	.	.	.	.
8AA/	.	.	16cc	.	16ee\	.	.	.	.	.	.	.	.	.	.	.	.	.
.	.	.	16ccJJ	.	16aa\JJ	.	.	.	.	.	.	.	.	.	.	.	.	.
8D/	3	.	16eeLL	.	16gg\LL	.	16eLL	-met-	.	.	.	.	16gg\LL	-mit-	4r	.	4r	.
.	.	.	16dd	.	16ff\	.	16dJJ	.	.	.	.	.	16ff\JJ	.	.	.	.	.
!	!	!	!	!	!	!	!	!	!	!	!	!	!LO:LB:g=original	!	!	!	!	!
8D/J	.	.	16cc	.	16ee\	.	16cLL	-tens	.	.	.	.	16ee\LL	-tens	.	.	.	.
.	.	.	16bJJ	.	16dd\JJ	.	16BJJ	.	.	.	.	.	16dd\JJ	.	.	.	.	.
=49	=49	=49	=49	=49	=49	=49	=49	=49	=49	=49	=49	=49	=49	=49	=49	=49	=49	=49
!	!	!	!	!	!	!	!	!	!	!	!	!	!	!	!LO:TX:a:t=1	!	!LO:TX:a:t=1	!
8E\L	6 4	.	16aLL	.	16cc\LL	.	4A	i-	.	.	.	.	4cc\	-i-	2r	.	2r	.
.	.	.	16a	.	16cc\	.	.	.	.	.	.	.	.	.	.	.	.	.
8E\	.	.	16a	.	16cc\	.	.	.	.	.	.	.	.	.	.	.	.	.
.	.	.	16aJJ	.	16cc\JJ	.	.	.	.	.	.	.	.	.	.	.	.	.
*	*	*	*tremolo	*	*tremolo	*	*	*	*	*	*	*	*	*	*	*	*	*
8EE/	5 #	.	16g#XLL	.	16b\LL	.	4G#X	-na-	.	.	.	.	4bt\	-na-	.	.	.	.
.	.	.	16g#X	.	16b\	.	.	.	.	.	.	.	.	.	.	.	.	.
8EE/J	.	.	16g#X	.	16b\	.	.	.	.	.	.	.	.	.	.	.	.	.
.	.	.	16g#XJJ	.	16b\JJ	.	.	.	.	.	.	.	.	.	.	.	.	.
*	*	*	*Xtremolo	*	*Xtremolo	*	*	*	*	*	*	*	*	*	*	*	*	*
=50	=50	=50	=50	=50	=50	=50	=50	=50	=50	=50	=50	=50	=50	=50	=50	=50	=50	=50
!LO:LB:g=original	!	!	!	!	!	!	!LO:LB:g=original	!	!	!	!	!	!	!	!	!	!	!
!	!	!	!	!	!	!	!	!	!LO:N:vis=00	!	!LO:N:vis=00	!	!	!	!	!	!	!
8AA/L	.	.	8aL	.	8a/L	p	4A	-nes	0r	.	0r	.	4a\	-nes.	8r	.	8r	.
8AA/	.	.	8c	.	8e/	.	.	.	.	.	.	.	.	.	8ccL	p	8eeL	.
8C/	.	.	8c	.	8e/	.	4r	.	.	.	.	.	4r	.	8cc	.	8ee	.
8E/J	.	.	8cJ	.	8e/J	.	.	.	.	.	.	.	.	.	8ccJ	.	8eeJ	.
=51	=51	=51	=51	=51	=51	=51	=51	=51	=51	=51	=51	=51	=51	=51	=51	=51	=51	=51
!	!	!	!	!	!	!	!LO:TX:a:t=7.	!	!	!	!	!	!	!	!	!	!	!
!	!	!	!	!	!	!	!LO:N:vis=00	!	!	!	!	!	!LO:N:vis=00	!	!	!	!	!
8A\L	.	.	4c	.	4e/	.	0r	.	.	.	.	.	0r	.	4cc	mf	4ee	.
8A\	.	.	.	.	.	.	.	.	.	.	.	.	.	.	.	.	.	.
8D\	3	.	16eLL	.	16g/LL	.	.	.	.	.	.	.	.	.	16eeLL	.	16ggLL	.
.	.	.	16d	.	16f/	.	.	.	.	.	.	.	.	.	16dd	f	16ff	.
8D\J	.	.	16c	.	16e/	.	.	.	.	.	.	.	.	.	16cc	.	16ee	.
.	.	.	16BJJ	.	16d/JJ	.	.	.	.	.	.	.	.	.	16bJJ	.	16ddJJ	.
=52	=52	=52	=52	=52	=52	=52	=52	=52	=52	=52	=52	=52	=52	=52	=52	=52	=52	=52
!	!	!	!	!	!	!	!	!	!	!	!	!	!	!	!	!	!LO:LB:g=original	!
8E\L	6 4	.	16AKL	.	4c/	.	.	.	.	.	.	.	.	.	4a\	p	4cc	.
.	.	.	8A	.	.	.	.	.	.	.	.	.	.	.	.	.	.	.
8E\	.	.	.	.	.	.	.	.	.	.	.	.	.	.	.	.	.	.
.	.	.	16AJk	.	.	.	.	.	.	.	.	.	.	.	.	.	.	.
!	!	!	!	!	!	!	!	!	!	!	!	!	!	!	!	!	!	!
8E\	-5 3	.	16GKL	.	4B-XT/	.	.	.	.	.	.	.	.	.	4g\	f	4b-X	.
.	.	.	8G	.	.	.	.	.	.	.	.	.	.	.	.	.	.	.
8E\J	.	.	.	.	.	.	.	.	.	.	.	.	.	.	.	.	.	.
.	.	.	16enJk	.	.	.	.	.	.	.	.	.	.	.	.	.	.	.
=53	=53	=53	=53	=53	=53	=53	=53	=53	=53	=53	=53	=53	=53	=53	=53	=53	=53	=53
!	!	!	!	!	!	!	!	!	!	!	!	!	!	!	!LO:LB:g=original	!	!	!
!	!	!LO:DY:t=for	!	!	!	!	!	!	!	!	!	!	!	!	!	!	!	!
8F\L	5	f	16fKL	.	8A/L	.	.	.	.	.	.	.	.	.	4f	.	4a	.
.	.	.	8a	.	.	.	.	.	.	.	.	.	.	.	.	.	.	.
!	!	!	!	!	!LO:TX:t=P:problem=mixedbeam	!	!	!	!	!	!	!	!	!	!	!	!	!
8F\	.	.	.	.	32aa\LL	ff	.	.	.	.	.	.	.	.	.	.	.	.
.	.	.	.	.	32gg\	.	.	.	.	.	.	.	.	.	.	.	.	.
.	.	.	16aJk	f ???	32ff\	.	.	.	.	.	.	.	.	.	.	.	.	.
.	.	.	.	.	32ee\JJJ	.	.	.	.	.	.	.	.	.	.	.	.	.
8F#X\	6	.	16aKL	f ???	8dd\L	.	.	.	.	.	.	.	.	.	4r	.	4r	.
.	.	.	8a	.	.	.	.	.	.	.	.	.	.	.	.	.	.	.
8F#\J	.	.	.	.	32dd\LL	.	.	.	.	.	.	.	.	.	.	.	.	.
.	.	.	.	.	32ccn\	.	.	.	.	.	.	.	.	.	.	.	.	.
.	.	.	16aJk	.	32b\	.	.	.	.	.	.	.	.	.	.	.	.	.
.	.	.	.	.	32cc\JJJ	.	.	.	.	.	.	.	.	.	.	.	.	.
=54	=54	=54	=54	=54	=54	=54	=54	=54	=54	=54	=54	=54	=54	=54	=54	=54	=54	=54
!	!	!	!	!	!LO:LB:g=original	!	!	!	!	!	!	!	!	!	!	!	!	!
!	!	!	!	!	!	!	!	!	!LO:N:vis=00	!	!LO:N:vis=00	!	!	!	!LO:TX:a:t=3	!	!LO:TX:a:t=3	!
!	!	!	!	!	!	!	!	!	!	!	!	!	!	!	!LO:N:vis=0	!	!LO:N:vis=0	!
8G\L	3	.	16dKL	.	8bn\L	.	.	.	0r	.	0r	.	.	.	1r	.	1r	.
.	.	.	8d	.	.	.	.	.	.	.	.	.	.	.	.	.	.	.
8G\	.	.	.	.	(32ddd\LL	.	.	.	.	.	.	.	.	.	.	.	.	.
.	.	.	.	.	32cccn\	.	.	.	.	.	.	.	.	.	.	.	.	.
.	.	.	16dJk	.	32bb\	.	.	.	.	.	.	.	.	.	.	.	.	.
.	.	.	.	.	32aa\JJJ)	.	.	.	.	.	.	.	.	.	.	.	.	.
!LO:TX:t=P:problem=mixedbeam	!	!	!	!	!	!	!	!	!	!	!	!	!	!	!	!	!	!
8BB/	6	.	16gKL	.	8gg\L	.	.	.	.	.	.	.	.	.	.	.	.	.
.	.	.	8g	.	.	.	.	.	.	.	.	.	.	.	.	.	.	.
8BB/J	.	.	.	.	(32gg\LL	.	.	.	.	.	.	.	.	.	.	.	.	.
.	.	.	.	.	32ff\	.	.	.	.	.	.	.	.	.	.	.	.	.
.	.	.	16gJk	.	32ee\	.	.	.	.	.	.	.	.	.	.	.	.	.
.	.	.	.	.	32ff\JJJ)	.	.	.	.	.	.	.	.	.	.	.	.	.
=55	=55	=55	=55	=55	=55	=55	=55	=55	=55	=55	=55	=55	=55	=55	=55	=55	=55	=55
!	!	!	!LO:TX:a:t=P:problem=mixed beam	!	!	!LO:N:vis=0	!	!	!	!	!	!	!	!	!	!	!	!
8C/L	.	.	16gKL/	.	16ee\LL	.	1r	.	.	.	.	.	2r	.	.	.	.	.
.	.	.	8ee\	.	16gg\	.	.	.	.	.	.	.	.	.	.	.	.	.
8C/	.	.	.	.	16gg\	.	.	.	.	.	.	.	.	.	.	.	.	.
.	.	.	16eeJk	.	16ccc\JJ	.	.	.	.	.	.	.	.	.	.	.	.	.
8C/	.	.	16eeLL	.	16ccc\LL	.	.	.	.	.	.	.	.	.	.	.	.	.
.	.	.	16ee	.	16gg\	.	.	.	.	.	.	.	.	.	.	.	.	.
8C/J	.	.	16ee	.	16gg\	.	.	.	.	.	.	.	.	.	.	.	.	.
.	.	.	16ccJJ	.	16ee\JJ	.	.	.	.	.	.	.	.	.	.	.	.	.
=56	=56	=56	=56	=56	=56	=56	=56	=56	=56	=56	=56	=56	=56	=56	=56	=56	=56	=56
8G\L	.	.	8ccL	.	8ee\L	.	.	.	.	.	.	.	4r	.	2r	.	2r	.
!LO:TX:t=P:problem=mixedbeam	!	!	!	!	!	!	!	!	!	!	!	!	!	!	!	!	!	!
8GG/J	.	.	16bL	.	16dd\L	p	.	.	.	.	.	.	.	.	.	.	.	.
.	.	.	16aJJ	.	16ff\JJ	.	.	.	.	.	.	.	.	.	.	.	.	.
4r	.	.	16gLL	p ???	16ee\LL	.	.	.	.	.	.	.	8r	.	.	.	.	.
.	.	.	16f	.	16dd\	.	.	.	.	.	.	.	.	.	.	.	.	.
.	.	.	16e	.	16cc\	.	.	.	.	.	.	.	16g\	o	.	.	.	.
.	.	.	16dJJ	.	16b\JJ	.	.	.	.	.	.	.	16g\	quam	.	.	.	.
=57	=57	=57	=57	=57	=57	=57	=57	=57	=57	=57	=57	=57	=57	=57	=57	=57	=57	=57
!LO:LB:g=original	!	!	!	!	!	!	!	!	!	!	!	!	!	!	!	!	!	!
*tremolo	*	*	*	*	*	*	*	*	*	*	*	*	*	*	*	*	*	*
8C/L	.	.	(4e	p ???	(4cc\	pp	2r	.	.	.	.	.	4cc\	.	4e	pp	4cc/	p
8C/	.	.	.	.	.	.	.	.	.	.	.	.	.	.	.	.	.	.
8C/	.	.	16eLL	.	16cc\LL	.	.	.	.	.	.	.	16cc\LL	Sua-	(16eLL	.	(<16ccLL/	.
.	.	.	32gL	.	32ee\L	.	.	.	.	.	.	.	32ee\L	.	32gL	.	32eeL	.
.	.	.	32fJJJ)	.	32dd\J)	.	.	.	.	.	.	.	32dd\JJJ	.	32fJJJ)	.	32ddJJJ	.
.	16qqff/	.	16qqa	.	16qqff/	.	.	.	.	.	.	.	16qqa/	.	16qqa	.	16qqff	.
8C/J	.	.	16gLL	.	16ee\	.	.	.	.	.	.	.	16ee\	-vis	16gLL	.	16eeLL/)	.
.	.	.	32fL	.	32dd\L	.	.	.	.	.	.	.	32dd\LLL	est	32fL	.	32ddL	.
.	.	.	32eJJJ	.	32cc\JJJ	.	.	.	.	.	.	.	32cc\JJJ	.	32eJJJ	.	32ccJJJ	.
*Xtremolo	*	*	*	*	*	*	*	*	*	*	*	*	*	*	*	*	*	*
=58	=58	=58	=58	=58	=58	=58	=58	=58	=58	=58	=58	=58	=58	=58	=58	=58	=58	=58
!	!	!	!	!	!	!	!	!	!	!	!	!	!	!	!LO:N:vis16.	!	!	!
8G\L	.	.	8.dL	.	8.b\L	.	4r	.	4r	.	4r	.	8.b\	Do	8.dL	.	8.bL	.
!LO:TX:t=P:problem=mixedbeam	!	!	!	!	!	!	!	!	!	!	!	!	!	!	!	!	!	!
8GG/	.	.	.	.	.	.	.	.	.	.	.	.	.	.	.	.	.	.
.	.	.	32eLL	.	32cc\LL	.	.	.	.	.	.	.	32cc\LLL	-mi-	32eLL	.	32ccLL	.
.	.	.	32fJJJ	.	32dd\JJJ	.	.	.	.	.	.	.	32dd\JJJ	.	32fJJJ	.	32ddJJJ	.
!	!	!	!LO:TX:a:t=P:problem=mixed beam	!	!	!	!	!	!	!	!	!	!	!	!	!	!	!
8C/	.	.	16eLL/	.	8cc\L	.	8r	.	8r	.	8r	.	8cc\	-ne	8e	.	8cc	.
.	.	.	16cc\	.	.	.	.	.	.	.	.	.	.	.	.	.	.	.
8E/J	6	f	16cc\	.	32ccc\LL	.	8E	Spi-	8c	Spi-	8g	Spi-	8cc\	-Spi	8r	.	8r	.
.	.	.	.	.	32bb\	f	.	.	.	.	.	.	.	.	.	.	.	.
.	.	.	16ccJJ	f ???	32aa\	.	.	.	.	.	.	.	.	.	.	.	.	.
.	.	.	.	.	32gg#X\JJJ	f	.	.	.	.	.	.	.	.	.	.	.	.
=59	=59	=59	=59	=59	=59	=59	=59	=59	=59	=59	=59	=59	=59	=59	=59	=59	=59	=59
!	!	!	!	!	!	!	!	!	!	!	!LO:LB:g=original	!	!	!	!	!	!	!
!	!	!	!	!	!	!	!	!	!	!	!	!	!	!	!LO:TX:a:t=2	!	!LO:TX:a:t=2	!
!	!	!	!	!	!	!	!	!	!	!	!	!	!	!	!LO:N:vis=0	!	!LO:N:vis=0	!
8F\L	3	.	16ccLL	f ???	32aa\LLL	.	8F	-ri-	8A	-ri-	8a	-ri-	8cc\	ri-	1r	.	1r	.
.	.	.	.	.	32aa\	.	.	.	.	.	.	.	.	.	.	.	.	.
.	.	.	16cc	.	32ccc\	.	.	.	.	.	.	.	.	.	.	.	.	.
.	.	.	.	.	32ccc\JJJ	.	.	.	.	.	.	.	.	.	.	.	.	.
!	!	!	!	!	!LO:LB:g=original	!	!	!	!	!	!	!	!	!	!	!	!	!
8F\J	6	.	16cc	.	32aa\LLL	.	8F	-tus	8d	-tus	8a	-tus	8dd\	-tus	.	.	.	.
.	.	.	.	.	32aa\	.	.	.	.	.	.	.	.	.	.	.	.	.
.	.	.	16ccJJ	.	32ff\	.	.	.	.	.	.	.	.	.	.	.	.	.
.	.	.	.	.	32ff\JJJ	.	.	.	.	.	.	.	.	.	.	.	.	.
8G\L	4	.	32ccLLL	.	32ee\LLL	.	4G	tu-	8eL	tu-	4g	tu-	8cc\L	tu-	.	.	.	.
.	.	.	32cc	.	32ee\	.	.	.	.	.	.	.	.	.	.	.	.	.
.	.	.	32cc	.	32ccc\	.	.	.	.	.	.	.	.	.	.	.	.	.
.	.	.	32ccJJJ	.	32ccc\JJJ	.	.	.	.	.	.	.	.	.	.	.	.	.
!LO:TX:t=P:problem=mixedbeam	!	!	!	!	!	!	!	!	!	!	!	!	!	!	!	!	!	!
8GG/J	3	.	32bLLL	.	32dd\LLL	.	.	.	8dJ	.	.	.	8b\J	.	.	.	.	.
.	.	.	32b	.	32dd\	.	.	.	.	.	.	.	.	.	.	.	.	.
.	.	.	32dd	.	32bbn\	.	.	.	.	.	.	.	.	.	.	.	.	.
.	.	.	32ddJJJ	.	32bb\JJJ	.	.	.	.	.	.	.	.	.	.	.	.	.
=60	=60	=60	=60	=60	=60	=60	=60	=60	=60	=60	=60	=60	=60	=60	=60	=60	=60	=60
4C/	.	.	8c 8g 8ee	.	8ccc\L	.	4C	-us	4e	-us	4g	-us	4cc\	-us	.	.	.	.
!	!	!	!	!	!LO:TX:a:t=P:problem=mixedbeam	!	!	!	!	!	!	!	!	!	!	!	!	!
!	!	!	!LO:LB:g=original	!	!	!	!	!	!	!	!	!	!	!	!	!	!	!
.	.	.	32gLLL	.	32e/LL	.	.	.	.	.	.	.	.	.	.	.	.	.
.	.	.	32f	.	32f/	.	.	.	.	.	.	.	.	.	.	.	.	.
.	.	.	32e	.	32e/	.	.	.	.	.	.	.	.	.	.	.	.	.
.	.	.	32dJJJ	.	32d/JJJ	.	.	.	.	.	.	.	.	.	.	.	.	.
.	.	.	.	.	.	.	.	.	.	.	.	.	.	.	.	.	.	.
4r	.	.	8c	.	8c/	.	4r	.	4r	.	4r	.	8ee\	o	.	.	.	.
.	.	.	8r	.	8r	.	.	.	.	.	.	.	16dd\LL	quam	.	.	.	.
.	.	.	.	.	.	.	.	.	.	.	.	.	16cc\JJ	.	.	.	.	.
=61	=61	=61	=61	=61	=61	=61	=61	=61	=61	=61	=61	=61	=61	=61	=61	=61	=61	=61
!	!	!	!	!	!	!	!LO:TX:b:t=13.	!	!LO:TX:b:t=13	!	!LO:N:vis=00	!	!	!	!	!	!	!
!	!	!	!	!	!	!	!LO:N:vis=00	!	!LO:N:vis=00	!	!	!	!	!	!	!	!	!
8c\	.	pp	8r	.	8r	.	0r	.	0r	.	0r	.	[<2gg\	Sua-	8r	.	8r	.
8r	.	.	8c	pp ???	8e/	p	.	.	.	.	.	.	.	.	8cc	.	8ee	.
!	!	!	!	!	!	!	!	!	!	!	!	!	!	!	!	!	!	!
8C/	.	.	8.cL	.	8.et/L	.	.	.	.	.	.	.	.	.	8.ccL	.	8.eeL	pp
8r	.	.	.	.	.	.	.	.	.	.	.	.	.	.	.	.	.	.
.	.	.	32BLL	.	32d/LL	.	.	.	.	.	.	.	.	.	32bLL	.	32ddLL	.
.	.	.	32cJJJ	.	32e/JJJ	.	.	.	.	.	.	.	.	.	32ccJJJ	.	32eeJJJ	.
=62	=62	=62	=62	=62	=62	=62	=62	=62	=62	=62	=62	=62	=62	=62	=62	=62	=62	=62
8G\	.	.	8dL	.	8f/L	.	.	.	.	.	.	.	2gg\_<	.	8ddL	.	8ffL	.
8r	.	.	8BJ	.	8d/J	.	.	.	.	.	.	.	.	.	16bL	.	16ddL	.
.	.	.	.	.	.	.	.	.	.	.	.	.	.	.	16bJJ	.	16ddJJ	.
!	!	!	!	!	!	!	!	!	!	!	!	!	!	!	!	!	!	!
8GG/	.	.	8.BL	.	8.dT/L	.	.	.	.	.	.	.	.	.	8.bL\	.	8.ddL	.
8r	.	.	.	.	.	.	.	.	.	.	.	.	.	.	.	.	.	.
.	.	.	32ALL	.	32c/LL	.	.	.	.	.	.	.	.	.	32aLL	.	32ccLL	.
.	.	.	32BJJJ	.	32d/JJJ	.	.	.	.	.	.	.	.	.	32bJJJ	.	32ddJJJ	.
=63	=63	=63	=63	=63	=63	=63	=63	=63	=63	=63	=63	=63	=63	=63	=63	=63	=63	=63
8c\	.	.	8cL	.	8d/L	.	.	.	.	.	.	.	2gg\_<	.	8ccL	.	8eeL	.
8r	.	.	8cJ	.	8e/J	.	.	.	.	.	.	.	.	.	16ccL	.	16eeL	.
!	!	!	!	!	!	!	!	!	!	!	!	!	!	!	!	!	!	!
.	.	.	.	.	.	.	.	.	.	.	.	.	.	.	16ccJJ	.	16eeJJ	.
!	!	!	!	!	!	!	!	!	!	!	!	!	!	!	!	!	!	!
!	!	!	!	!	!	!	!	!	!	!	!	!	!	!	!	!	!LO:LB:g=original	!
8C/	.	.	8.cL	.	8.et/L	.	.	.	.	.	.	.	.	.	8.ccL	.	8.eeL	.
8r	.	.	.	.	.	.	.	.	.	.	.	.	.	.	.	.	.	.
.	.	.	32BLL	.	32d/LL	.	.	.	.	.	.	.	.	.	32bLL	.	32ddLL	.
.	.	.	32cJJJ	.	32e/JJJ	.	.	.	.	.	.	.	.	.	32ccJJJ	.	32eeJJJ	.
=64	=64	=64	=64	=64	=64	=64	=64	=64	=64	=64	=64	=64	=64	=64	=64	=64	=64	=64
!LO:LB:g=original	!	!	!	!	!	!	!	!	!	!	!	!	!	!	!LO:LB:g=original	!	!	!
8G\	.	.	8dL	.	8f/L	.	.	.	.	.	.	.	2gg\_<	.	8ddL	.	8ffL	.
8r	.	.	8BJ	.	8d/J	.	.	.	.	.	.	.	.	.	16bL	.	16ddL	.
.	.	.	.	.	.	.	.	.	.	.	.	.	.	.	16bJJ	.	16ddJJ	.
!	!	!	!	!	!	!	!	!	!	!	!	!	!	!	!	!	!	!
8GG/	.	.	8.BL	.	8.dT/L	.	.	.	.	.	.	.	.	.	8.bL\	.	8.ddL	.
8r	.	.	.	.	.	.	.	.	.	.	.	.	.	.	.	.	.	.
.	.	.	32ALL	.	32c/LL	.	.	.	.	.	.	.	.	.	32aLL	.	32ccLL	.
.	.	.	32BJJJ	.	32d/JJJ	.	.	.	.	.	.	.	.	.	32bJJJ	.	32ddJJJ	.
=65	=65	=65	=65	=65	=65	=65	=65	=65	=65	=65	=65	=65	=65	=65	=65	=65	=65	=65
*tremolo	*	*	*	*	*	*	*	*	*	*	*	*	*	*	*	*	*	*
!	!	!	!	!	!	!	!LO:N:vis=00	!	!LO:N:vis=00	!	!LO:N:vis=00	!	!	!	!	!	!	!
8E\L	.	.	8cL	.	8e/L	.	0r	.	0r	.	0r	.	4gg\]	.	4cc	.	4ee	.
!	!	!	!	!	!LO:TX:a:t=P:problem=mixedbeam	!	!	!	!	!	!	!	!	!	!	!	!	!
8E\	.	.	8g	.	8cc\J	.	.	.	.	.	.	.	.	.	.	.	.	.
!	!	!	!	!	!LO:LB:g=original	!	!	!	!	!	!	!	!	!	!	!	!	!
8E\	.	.	8g	.	8cc\L	.	.	.	.	.	.	.	16ff\LL	.	4r	.	4r	.
.	.	.	.	.	.	.	.	.	.	.	.	.	16ee\JJ	.	.	.	.	.
8E\J	.	.	8gJ	.	8cc\J	.	.	.	.	.	.	.	16dd\LL	.	.	.	.	.
.	.	.	.	.	.	.	.	.	.	.	.	.	16cc\JJ	.	.	.	.	.
=66	=66	=66	=66	=66	=66	=66	=66	=66	=66	=66	=66	=66	=66	=66	=66	=66	=66	=66
!	!	!	!LO:SIC:o=:v:mniej wyraźnym atramntem jeszcze 2b i 2g\ - tremolo	!	!	!	!	!	!	!	!	!	!	!	!LO:TX:a:t=2	!	!LO:TX:a:t=2	!
*	*	*	*tremolo	*	*	*	*	*	*	*	*	*	*	*	*	*	*	*
!	!	!	!	!	!	!	!	!	!	!	!	!	!	!	!LO:N:vis=0	!	!LO:N:vis=0	!
8E\L	.	.	8a-XL	.	8cc\L	.	.	.	.	.	.	.	4b-X\	.	1r	.	1r	.
8E\	.	.	8a-X	.	8cc\	.	.	.	.	.	.	.	.	.	.	.	.	.
8E\	.	.	8a-X	.	8cc\	.	.	.	.	.	.	.	16b-\LL	.	.	.	.	.
.	.	.	.	.	.	.	.	.	.	.	.	.	32dd\L	.	.	.	.	.
.	.	.	.	.	.	.	.	.	.	.	.	.	32cc\JJJ	.	.	.	.	.
.	.	.	.	.	.	.	.	.	.	.	.	.	.	.	.	.	.	.
8E\J	.	.	8a-XJ	.	8cc\J	.	.	.	.	.	.	.	16dd\	.	.	.	.	.
*	*	*	*	*	*	*	*	*	*	*	*	*	*rscale:2	*	*	*	*	*
.	.	.	.	.	.	.	.	.	.	.	.	.	32cc\LLL	.	.	.	.	.
.	.	.	.	.	.	.	.	.	.	.	.	.	32b-\JJJ	.	.	.	.	.
*	*	*	*	*	*	*	*	*	*	*	*	*	*rscale:1	*	*	*	*	*
=67	=67	=67	=67	=67	=67	=67	=67	=67	=67	=67	=67	=67	=67	=67	=67	=67	=67	=67
*	*	*	*	*	*tremolo	*	*	*	*	*	*	*	*	*	*	*	*	*
*	*	*	*	*	*2\right	*	*	*	*	*	*	*	*	*	*	*	*	*
8F\L	.	.	8aL	.	8cc\L	.	.	.	.	.	.	.	8a\	.	.	.	.	.
8F\	.	.	8a	.	8cc\	.	.	.	.	.	.	.	24cc\LL	.	.	.	.	.
.	.	.	.	.	.	.	.	.	.	.	.	.	24dd\	.	.	.	.	.
.	.	.	.	.	.	.	.	.	.	.	.	.	24cc\JJ	.	.	.	.	.
8F\	.	.	8a	.	8cc\	.	.	.	.	.	.	.	8ff\	.	.	.	.	.
8F\J	.	.	8aJ	.	8cc\J	.	.	.	.	.	.	.	24aa\LL	.	.	.	.	.
.	.	.	.	.	.	.	.	.	.	.	.	.	24bb-X\	.	.	.	.	.
.	.	.	.	.	.	.	.	.	.	.	.	.	24aa\JJ	.	.	.	.	.
=68	=68	=68	=68	=68	=68	=68	=68	=68	=68	=68	=68	=68	=68	=68	=68	=68	=68	=68
8F\L	.	.	8aL	.	8cc\L	.	.	.	.	.	.	.	16ccc\	.	16aa	.	16ccc	.
.	.	.	.	.	.	.	.	.	.	.	.	.	16r	.	16r	.	16r	.
8F\	.	.	8a	.	8cc\	.	.	.	.	.	.	.	16aa\	.	16ff	.	16aa	.
.	.	.	.	.	.	.	.	.	.	.	.	.	16r	.	16r	.	16r	.
8F\	.	.	8a	.	8cc\	.	.	.	.	.	.	.	16ff\	.	16cc	.	16ff	.
.	.	.	.	.	.	.	.	.	.	.	.	.	16r	.	16r	.	16r	.
8F\J	.	.	8aJ	.	8cc\J	.	.	.	.	.	.	.	16cc\	.	16a\	.	16cc	.
.	.	.	.	.	.	.	.	.	.	.	.	.	16r	.	16r	.	16r	.
=69	=69	=69	=69	=69	=69	=69	=69	=69	=69	=69	=69	=69	=69	=69	=69	=69	=69	=69
!	!	!	!LO:LB:g=original	!	!	!	!	!	!	!	!	!	!	!	!	!	!	!
!	!	!	!	!	!	!	!LO:N:vis=00	!	!LO:N:vis=00	!	!LO:N:vis=00	!	!	!	!LO:TX:a:t=1	!	!LO:TX:a:t=1	!
8E\L	.	.	8gL	.	8cc\L	.	0r	.	0r	.	0r	.	8g\	.	2r	.	2r	.
8E\	.	.	8g	.	8cc\	.	.	.	.	.	.	.	24cc\LL	.	.	.	.	.
.	.	.	.	.	.	.	.	.	.	.	.	.	24dd\	.	.	.	.	.
.	.	.	.	.	.	.	.	.	.	.	.	.	24cc\JJ	.	.	.	.	.
8E\	.	.	8g	.	8cc\	.	.	.	.	.	.	.	8ee\	.	.	.	.	.
8E\J	.	.	8gJ	.	8cc\J	.	.	.	.	.	.	.	24gg\LL	.	.	.	.	.
.	.	.	.	.	.	.	.	.	.	.	.	.	24aa\	.	.	.	.	.
.	.	.	.	.	.	.	.	.	.	.	.	.	24gg\JJ	.	.	.	.	.
=70	=70	=70	=70	=70	=70	=70	=70	=70	=70	=70	=70	=70	=70	=70	=70	=70	=70	=70
8E\L	.	.	8fL	.	8cc\L	.	.	.	.	.	.	.	16ccc\	.	16gg	.	16ccc	.
.	.	.	.	.	.	.	.	.	.	.	.	.	16r	.	16r	.	16r	.
8E\	.	.	8f	.	8cc\	.	.	.	.	.	.	.	16gg\	.	16ee	.	16gg	.
.	.	.	.	.	.	.	.	.	.	.	.	.	16r	.	16r	.	16r	.
8E\	.	.	8f	.	8cc\	.	.	.	.	.	.	.	16ee\	.	16cc	.	16ee	.
.	.	.	.	.	.	.	.	.	.	.	.	.	16r	.	16r	.	16r	.
8E\J	.	.	8fJ	.	8cc\J	.	.	.	.	.	.	.	16cc\	.	16g\	.	16cc	.
.	.	.	.	.	.	.	.	.	.	.	.	.	16r	.	16r	.	16r	.
*Xtremolo	*	*	*Xtremolo	*	*Xtremolo	*	*	*	*	*	*	*	*	*	*	*	*	*
=71	=71	=71	=71	=71	=71	=71	=71	=71	=71	=71	=71	=71	=71	=71	=71	=71	=71	=71
!	!	!	!	!	!	!	!	!	!	!	!	!	!LO:LB:g=original	!	!	!	!	!
8BBn/L	5	.	8gL	.	8ff\L	.	.	.	.	.	.	.	(4ff\	.	2g\	.	4ff	.
8BB/	.	.	8gJ	.	8ff\J	.	.	.	.	.	.	.	.	.	.	.	.	.
!LO:SIC:s=:v:nieczytelna notatka.	!	!	!	!	!	!	!	!	!	!	!	!	!	!	!	!	!	!
8C/	.	.	8r	.	8r	.	.	.	.	.	.	.	16ee\LL)	.	.	.	4ee	.
.	.	.	.	.	.	.	.	.	.	.	.	.	32gg\L	.	.	.	.	.
.	.	.	.	.	.	.	.	.	.	.	.	.	32ff\JJJ	.	.	.	.	.
.	.	.	.	.	.	.	.	.	.	.	.	.	.	.	.	.	.	.
8C/J	.	.	8g	.	8ee\	.	.	.	.	.	.	.	16gg\LL	.	.	.	.	.
.	.	.	.	.	.	.	.	.	.	.	.	.	32ff\L	.	.	.	.	.
.	.	.	.	.	.	.	.	.	.	.	.	.	32ee\JJJ	.	.	.	.	.
!	!	!	!	!	!LO:TX:t=Vel&colon; Cito	!	!	!	!	!	!	!	!	!	!	!	!	!
=72	=72	=72	=72	=72	=72	=72	=72	=72	=72	=72	=72	=72	=72	=72	=72	=72	=72	=72
!	!	!	!	!	!LO:PB:g=original	!	!	!	!	!	!	!	!	!	!	!	!	!
8BB/L	.	.	8gL	.	8ff\L	.	.	.	.	.	.	.	(4ff\	.	2g\	.	4ff	.
8BB/	.	.	8gJ	.	8ff\J	.	.	.	.	.	.	.	.	.	.	.	.	.
8C/	.	.	8r	.	8r	.	.	.	.	.	.	.	16ee\L)	.	.	.	4ee	.
.	.	.	.	.	.	.	.	.	.	.	.	.	32gg\LL	.	.	.	.	.
.	.	.	.	.	.	.	.	.	.	.	.	.	32ff\JJJ	.	.	.	.	.
8C/J	.	.	8g	.	8ee\	.	.	.	.	.	.	.	16gg\LL	.	.	.	.	.
.	.	.	.	.	.	.	.	.	.	.	.	.	32ff\L	.	.	.	.	.
.	.	.	.	.	.	.	.	.	.	.	.	.	32ee\JJJ	.	.	.	.	.
=73	=73	=73	=73	=73	=73	=73	=73	=73	=73	=73	=73	=73	=73	=73	=73	=73	=73	=73
!LO:LB:g=original	!	!	!	!	!	!	!	!	!	!	!	!	!	!	!	!	!LO:LB:g=original	!
!	!	!	!	!	!	!	!	!	!	!	!	!	!LO:SIC:o=:v:wykreśłony takt	!	!	!	!	!
8BB/L	.	.	8r	.	8r	.	2r	.	2r	.	2r	.	16ff\LL	.	4g\	.	4ff	.
.	.	.	.	.	.	.	.	.	.	.	.	.	16dd\JJ	.	.	.	.	.
8BB/	.	.	8g	.	8ff\	.	.	.	.	.	.	.	16ff\LL	.	.	.	.	.
.	.	.	.	.	.	.	.	.	.	.	.	.	16dd\JJ	.	.	.	.	.
8C/	.	.	8r	.	8r	.	.	.	.	.	.	.	16ee\LL	-vis	16gLL	.	16eeLL	.
.	.	.	.	.	.	.	.	.	.	.	.	.	16cc\JJ	.	16g	.	16cc	.
8C/J	.	.	(16gLL/	.	16ee\LL	.	.	.	.	.	.	.	16ee\LL	est	16cc	.	16ee	.
.	.	.	16eeJJ)	.	16gg\JJ	.	.	.	.	.	.	.	16gg\JJ	.	16eeJJ	.	16ggJJ	.
=74	=74	=74	=74	=74	=74	=74	=74	=74	=74	=74	=74	=74	=74	=74	=74	=74	=74	=74
!	!	!	!	!	!	!	!	!	!	!	!	!	!	!	!LO:LB:g=original	!	!	!
!	!	!	!LO:SIC:o:s=:v:8ee	!	!	!	!	!	!	!	!	!	!	!	!	!	!	!
4G\	.	.	8.ddL	.	8.gg\L	.	4r	.	4r	.	4r	.	8.gg\	-Do-	8.eeL	.	8.ggL	.
.	.	.	16ccJk	ff	16ee\Jk	.	.	.	.	.	.	.	16ee\	-mi-	16ccJk	.	16eeJk	.
8GG/L	.	.	16bLL\	.	8dd\	.	8r	.	8r	.	8r	.	8dd\	-na	8b	.	8dd	.
.	.	.	16gJJ	.	.	.	.	.	.	.	.	.	.	.	.	.	.	.
!	!	!	!	!	!	!LO:DY:t=for	!	!	!	!	!	!	!	!	!	!	!	!
8BBn/J	.	.	16gLL\	.	(32ddd\LLL	f	8B	Spi-	8fn	Spi-	8dd	Spi-	8r	.	8r	.	8r	.
.	.	.	.	.	32bb\	.	.	.	.	.	.	.	.	.	.	.	.	.
.	.	.	16gJJ	.	32gg\	.	.	.	.	.	.	.	.	.	.	.	.	.
.	.	.	.	.	32ff#\JJJ)	.	.	.	.	.	.	.	.	.	.	.	.	.
=75	=75	=75	=75	=75	=75	=75	=75	=75	=75	=75	=75	=75	=75	=75	=75	=75	=75	=75
!	!	!	!	!	!	!	!	!	!	!	!	!	!	!	!	!	!	!
*^	*	*	*	*	*	*	*	*	*	*	*	*	*	*	*	*	*	*
!	!	!	!	!	!	!	!	!	!	!	!	!	!	!LO:TX:a:t=2	!	!	!	!	!
!	!	!	!	!	!	!	!	!	!	!	!	!	!	!LO:N:vis=0	!	!LO:N:vis=0	!LO:TX:a:t=2	!LO:N:vis=0	!
4C/	4ryy	.	.	16aLL/	.	16ee\LL	.	8G	-ri-	8e	-ri-	8cc	-ri-	1r	.	1r	.	1r	.
.	.	.	.	16ee	.	16ccc\	.	.	.	.	.	.	.	.	.	.	.	.	.
.	.	.	.	16cc	.	16ee\	.	8G	-tus	8e	-tus	8cc	-tus	.	.	.	.	.	.
.	.	.	.	16ccJJ	.	16ee\JJ	.	.	.	.	.	.	.	.	.	.	.	.	.
*	*	*	*	*tremolo	*	*	*	*	*	*	*	*	*	*	*	*	*	*	*
4F#X/	4FF/	.	.	16ccLL/	.	16ee\LL	.	4F#X	tu-	4e	tu-	4cc	tu-	.	.	.	.	.	.
.	.	.	.	16cc	.	16ee\	.	.	.	.	.	.	.	.	.	.	.	.	.
.	.	.	.	16cc	.	16ee\	.	.	.	.	.	.	.	.	.	.	.	.	.
.	.	.	.	16ccJJ	.	16ee\JJ	.	.	.	.	.	.	.	.	.	.	.	.	.
*	*	*	*	*Xtremolo	*	*	*	*	*	*	*	*	*	*	*	*	*	*	*
*v	*v	*	*	*	*	*	*	*	*	*	*	*	*	*	*	*	*	*	*
=76	=76	=76	=76	=76	=76	=76	=76	=76	=76	=76	=76	=76	=76	=76	=76	=76	=76	=76
!	!	!	!	!	!	!	!LO:LB:g=original	!	!LO:LB:g=original	!	!	!	!	!	!	!	!	!
4GG/	5 3	.	16bnLL	.	(16dd\LL	<	4G	-us	4d	-us	4bn	-us	.	.	.	.	.	.
.	.	.	16b	.	16gg\	.	.	.	.	.	.	.	.	.	.	.	.	.
.	.	.	16cc	.	16ff#X\	.	.	.	.	.	.	.	.	.	.	.	.	.
.	.	.	16ddJJ	.	16ffn\JJ)	.	.	.	.	.	.	.	.	.	.	.	.	.
4r	.	.	16ccLL\	.	(16ee\LL	.	4r	.	4r	.	4r	.	.	.	.	.	.	.
.	.	.	16f	.	16dd\	.	.	.	.	.	.	.	.	.	.	.	.	.
.	.	.	16e	.	16cc\	.	.	.	.	.	.	.	.	.	.	.	.	.
.	.	.	16dJJ	.	16b\JJ)	.	.	.	.	.	.	.	.	.	.	.	.	.
=77	=77	=77	=77	=77	=77	=77	=77	=77	=77	=77	=77	=77	=77	=77	=77	=77	=77	=77
!	!	!	!	!	!LO:LB:g=original	!	!	!	!	!	!	!	!	!	!	!	!	!
*tremolo	*	*	*	*	*	*	*	*	*	*	*	*	*	*	*	*	*	*
8C/L	.	.	16eKL	.	16cc\LL	.	4C	qui	4g	qui	4e	qui	4cc\	qui	2e	.	2cc	.
!	!	!	!	!	!LO:TX:a:t=P:problem=mixedbeam	!	!	!	!	!	!	!	!	!	!	!	!	!
.	.	.	8g	.	16c/	.	.	.	.	.	.	.	.	.	.	.	.	.
8C/	.	.	.	.	16e/	.	.	.	.	.	.	.	.	.	.	.	.	.
!	!	!	!LO:LB:g=original	!	!	!	!	!	!	!	!	!	!	!	!	!	!	!
.	.	.	16gJk	.	16g/JJ	.	.	.	.	.	.	.	.	.	.	.	.	.
8C/	.	.	16gKL	.	16cc\LL	.	8C	ut	8g	ut	8e	ut	8cc\	ut	.	.	.	.
.	.	.	8g	.	16ee\	.	.	.	.	.	.	.	.	.	.	.	.	.
8C/J	.	.	.	.	16gg\	.	8C	dul-	8g	dul-	8e	dul-	8cc\	-dul-	.	.	.	.
.	.	.	16gJk	.	16ccc\JJ	.	.	.	.	.	.	.	.	.	.	.	.	.
*Xtremolo	*	*	*	*	*	*	*	*	*	*	*	*	*	*	*	*	*	*
=78	=78	=78	=78	=78	=78	=78	=78	=78	=78	=78	=78	=78	=78	=78	=78	=78	=78	=78
8G\L	.	.	16gKL	.	16bb\LL	.	8.G\	-ce-	8.g	-ce-	8.d	-ce-	8.b\	-ce-	4e	.	4dd	.
.	.	.	8g	.	16dd\	.	.	.	.	.	.	.	.	.	.	.	.	.
!LO:TX:t=P:problem=mixedbeam	!	!	!	!	!	!	!	!	!	!	!	!	!	!	!	!	!	!
8GG/J	.	.	.	.	16g\	.	.	.	.	.	.	.	.	.	.	.	.	.
.	.	.	8g	.	16ff\JJ	.	16GG	-di-	16g	-di-	16d	-di-	16b\	-di-	.	.	.	.
16C/LL	.	.	.	.	16ee\LL	.	4C	-nem	4g	-nem	4e	-nem	4cc\	-nem	4d	.	4cc	.
16C/	.	.	8g	.	16cc\	.	.	.	.	.	.	.	.	.	.	.	.	.
16E/	.	.	.	.	16g\	.	.	.	.	.	.	.	.	.	.	.	.	.
16G/JJ	.	.	16gJk	.	16e\JJ	.	.	.	.	.	.	.	.	.	.	.	.	.
=79	=79	=79	=79	=79	=79	=79	=79	=79	=79	=79	=79	=79	=79	=79	=79	=79	=79	=79
!	!	!	!	!	!	!	!	!	!	!	!LO:LB:g=original	!	!	!	!	!	!	!
8c\L	.	.	16gKL	.	16c/LL	.	4C	tu-	4g	tu-	4e	tu-	4cc\	tu-	2cc	.	2ee	.
.	.	.	8g	.	16c/	.	.	.	.	.	.	.	.	.	.	.	.	.
!LO:TX:t=P:problem=mixedbeam	!	!	!	!	!	!	!	!	!	!	!	!	!	!	!	!	!	!
8C/	.	.	.	.	16e/	.	.	.	.	.	.	.	.	.	.	.	.	.
.	.	.	8g	.	16g/JJ	.	.	.	.	.	.	.	.	.	.	.	.	.
8C/	.	.	.	.	16cc\LL	.	8C	-am	8g	-am	8e	-am	8cc\	-am	.	.	.	.
.	.	.	8g	.	16ee\	.	.	.	.	.	.	.	.	.	.	.	.	.
8C/J	.	.	.	.	16gg\	.	8C	in	8g	in	8cc	in	8cc\	in	.	.	.	.
.	.	.	16gJk	.	16ccc\JJ	.	.	.	.	.	.	.	.	.	.	.	.	.
=80	=80	=80	=80	=80	=80	=80	=80	=80	=80	=80	=80	=80	=80	=80	=80	=80	=80	=80
8G\L	.	.	16gKL	.	16bb\LL	.	8.G	fi-	8g	fi-	8.b	fi-	8.dd\	fi-	8.bL	.	8.ddL	.
.	.	.	8g	.	16dd\	.	.	.	.	.	.	.	.	.	.	.	.	.
!LO:TX:t=P:problem=mixedbeam	!	!	!	!	!	!	!	!	!	!	!	!	!	!	!	!	!	!
8GG/J	.	.	.	.	16g\	.	.	.	8g	-li-	.	.	.	.	.	.	.	.
.	.	.	8g	.	16ff\JJ	.	16G	-li-	.	.	16dd	-li-	16ff\	-li	16ddJk	.	16ffJk	.
8c\L	.	.	.	.	16ee\LL	.	8c	-os	8g	-os	8cc	-os	8ee\	os	8ccL	.	8eeL	.
.	.	.	8g	.	16cc\	.	.	.	.	.	.	.	.	.	.	.	.	.
8E\J	.	.	.	.	16g\	.	8E	qui	8g	qui	8g	qui	8gg\	qui	8gJ	.	8ggJ	.
.	.	.	16gJk	.	16gg\JJ	.	.	.	.	.	.	.	.	.	.	.	.	.
=81	=81	=81	=81	=81	=81	=81	=81	=81	=81	=81	=81	=81	=81	=81	=81	=81	=81	=81
8F\L	9	.	16aKL	.	16gg\LL	.	(8FL	ut	8gL	ut	4a	ut	8gg\L	ut	4a	.	8ggL	.
.	.	.	8a	.	16a\	.	.	.	.	.	.	.	.	.	.	.	.	.
!	!	!	!	!	!	!	!	!	!LO:LB:g=original	!	!	!	!	!	!	!	!	!
8D\	3	.	.	.	16ff\	.	8DJ)	.	8fJ	.	.	.	8ff\J	.	.	.	[8ffJ	.
.	.	.	16aJk	.	16ff\JJ	.	.	.	.	.	.	.	.	.	.	.	.	.
8E\	9	.	16gKL	.	16ff\LL	.	(8EL	dul-	8fL	dul-	4g	dul-	8ff\L	dul-	4g	.	8ffL]	.
.	.	.	8g	.	16g\	.	.	.	.	.	.	.	.	.	.	.	.	.
8C\J	3	.	.	.	16a\	.	8CJ)	.	8eJ	.	.	.	8ee\J	.	.	.	[8eeJ	.
.	.	.	16gJk	.	16a\JJ	.	.	.	.	.	.	.	.	.	.	.	.	.
=82	=82	=82	=82	=82	=82	=82	=82	=82	=82	=82	=82	=82	=82	=82	=82	=82	=82	=82
!	!	!	!	!	!LO:LB:g=original	!	!	!	!	!	!	!	!	!	!	!	!	!
8D/L	9	.	8fL	.	16ee\LL	.	8.D\	-ce-	(8e	-ce-	8.f	-ce-	(8ee\	-ce-	4f	.	8ee]	.
.	.	.	.	.	16f\	.	.	.	.	.	.	.	.	.	.	.	.	.
8BB/J	.	.	(32fLL	.	16dd\	.	.	.	16d)	.	.	.	16dd\)	.	.	.	4dd	.
.	.	.	32d	.	.	.	.	.	.	.	.	.	.	.	.	.	.	.
.	.	.	32g	.	16dd\JJ	.	16BB\	-di-	16d	-di-	16f	-di-	16dd\	-di-	.	.	.	.
.	.	.	32fJJJ	.	.	.	.	.	.	.	.	.	.	.	.	.	.	.
!	!	!	!	!	!	!	!	!	!	!	!	!	!LO:LB:g=original	!	!	!	!	!
8C/	.	.	8eL)	.	16dd\LL	.	8C/	-nem	8d	-nem	8e	-nem	8dd\	-nem	4e	.	.	.
.	.	.	.	.	16e\	.	.	.	.	.	.	.	.	.	.	.	.	.
8A\	.	.	(32eLL	.	16cc\	.	8A	dul-	8c	dul-	8cc	dul-	8cc\	-dul	.	.	8cc	.
.	.	.	32c	.	.	.	.	.	.	.	.	.	.	.	.	.	.	.
.	.	.	32f	.	16cc\JJ	.	.	.	.	.	.	.	.	.	.	.	.	.
.	.	.	32eJJJ)	.	.	.	.	.	.	.	.	.	.	.	.	.	.	.
=83	=83	=83	=83	=83	=83	=83	=83	=83	=83	=83	=83	=83	=83	=83	=83	=83	=83	=83
!	!	!	!	!	!	!	!LO:LB:g=original	!	!	!	!	!	!	!	!	!	!	!
8F\L	6	.	16dLL	.	16cc\LL	.	8.F	-ce-	4c	-ce-	4cc	-ce-	8.dd\	-ce	4dd	.	2ccc	.
.	.	.	16d	.	16cc\	.	.	.	.	.	.	.	.	.	.	.	.	.
8F\	_	.	16d	.	16cc\	.	.	.	.	.	.	.	.	.	.	.	.	.
.	.	.	16dJJ	.	16cc\JJ	.	16F	-di-	.	.	.	.	16dd\	-di	.	.	.	.
*	*	*	*tremolo	*	*	*	*	*	*	*	*	*	*	*	*	*	*	*
8G\	.	.	16eLL	.	16cc\LL	.	4G	-nem	8c	-di-	8cc	-di-	4ee\	nem	4ee	.	.	.
.	.	.	16e	.	16cc\	.	.	.	.	.	.	.	.	.	.	.	.	.
8G\J	.	.	16e	.	16cc\	.	.	.	8c	-nem	8cc	-nem	.	.	.	.	.	.
.	.	.	16eJJ	.	16cc\JJ	.	.	.	.	.	.	.	.	.	.	.	.	.
=84	=84	=84	=84	=84	=84	=84	=84	=84	=84	=84	=84	=84	=84	=84	=84	=84	=84	=84
*	*	*	*	*	*tremolo	*	*	*	*	*	*	*	*	*	*	*	*	*
8A\L	6_	.	16fLL	.	16cc\LL	.	4A	tu-	4c	tu-	4cc	tu-	4ff\	-tu-	4ff	.	2ccc	.
.	.	.	16f	.	16cc\	.	.	.	.	.	.	.	.	.	.	.	.	.
8A\	.	.	16f	.	16cc\	.	.	.	.	.	.	.	.	.	.	.	.	.
.	.	.	16fJJ	.	16cc\	.	.	.	.	.	.	.	.	.	.	.	.	.
8G\	_ 6	.	16eLL	.	16cc\	.	8G	-am	8c	-am	8cc	-am	8ee\	-am	4ee	.	.	.
.	.	.	16e	.	16cc\	.	.	.	.	.	.	.	.	.	.	.	.	.
8G\J	.	.	16e	.	16cc\	.	8G	in	8c	in	8cc	in	8ee\	in	.	.	.	.
.	x	.	16eJJ	.	16cc\JJ	.	.	.	.	.	.	.	.	.	.	.	.	.
*	*	*	*	*	*Xtremolo	*	*	*	*	*	*	*	*	*	*	*	*	*
!	!	!	!LO:TX:b:t=Vol&colon; Cito	!	!	!	!	!	!	!	!	!	!	!	!	!	!	!
=85	=85	=85	=85	=85	=85	=85	=85	=85	=85	=85	=85	=85	=85	=85	=85	=85	=85	=85
!	!	!	!LO:PB:g=original	!	!	!	!	!	!	!	!	!	!	!	!	!	!LO:LB:g=original	!
!	!	!	!LO:TX:a:t=P:problem=mixed beam	!	!	!	!	!	!	!	!	!	!	!	!	!	!	!
8F\L	.	.	16dLL/	.	24ccc\LL	.	(4F	fi-	4.A/	fi-	4.cc	fi-	4.dd\	-fi-	4.dd	.	2ccc	.
.	.	.	.	.	24ddd\	.	.	.	.	.	.	.	.	.	.	.	.	.
.	.	.	16dd\	.	.	.	.	.	.	.	.	.	.	.	.	.	.	.
.	.	.	.	.	24ccc\JJ	.	.	.	.	.	.	.	.	.	.	.	.	.
8F\	.	.	16dd	.	24ccc\LL	.	.	.	.	.	.	.	.	.	.	.	.	.
.	.	.	.	.	24ddd\	.	.	.	.	.	.	.	.	.	.	.	.	.
.	.	.	16ddJJ	.	.	.	.	.	.	.	.	.	.	.	.	.	.	.
.	.	.	.	.	24ccc\JJ	.	.	.	.	.	.	.	.	.	.	.	.	.
8F#X\	6 5	.	16ddLL	.	24ccc\LL	.	8F#X)	.	.	.	.	.	.	.	.	.	.	.
.	.	.	.	.	24ddd\	.	.	.	.	.	.	.	.	.	.	.	.	.
.	.	.	16dd	.	.	.	.	.	.	.	.	.	.	.	.	.	.	.
.	.	.	.	.	24ccc\JJ	.	.	.	.	.	.	.	.	.	.	.	.	.
8F#\J	.	.	16dd	.	24ccc\LL	.	8F#	-li-	8A/	-li-	8cc	-li-	8dd\	-li-	8dd	.	.	.
.	.	.	.	.	24ddd\	.	.	.	.	.	.	.	.	.	.	.	.	.
.	.	.	16ddJJ	.	.	.	.	.	.	.	.	.	.	.	.	.	.	.
.	.	.	.	.	24ccc\JJ	.	.	.	.	.	.	.	.	.	.	.	.	.
=86	=86	=86	=86	=86	=86	=86	=86	=86	=86	=86	=86	=86	=86	=86	=86	=86	=86	=86
!LO:LB:g=original	!	!	!	!	!	!	!	!	!	!	!LO:LB:g=original	!	!	!	!	!	!	!
4G\	6	.	4dd	.	4bbn\	.	8G	-os	4G	-os	4bn	-os	4dd\	-os	4dd	.	4bbn	.
.	.	.	.	.	.	.	8GL	de-	.	.	.	.	.	.	.	.	.	.
4r	.	.	4r	.	4r	.	8BJ	.	4r	.	4r	.	4r	.	4r	.	4r	.
.	.	.	.	.	.	.	8d	-mons-	.	.	.	.	.	.	.	.	.	.
=87	=87	=87	=87	=87	=87	=87	=87	=87	=87	=87	=87	=87	=87	=87	=87	=87	=87	=87
!	!	!	!	!	!	!	!	!	!LO:LB:g=original	!	!	!	!	!	!LO:LB:g=original	!	!	!
*tremolo	*	*	*tremolo	*	*	*	*2\right	*	*	*	*	*	*	*	*	*	*	*
!	!	!	!LO:SIC:o=:v:6 pod łukiem	!	!	!	!	!	!	!	!	!	!	!	!	!	!	!
16Fn\LL	4 2	.	24ggLL	.	24bbn\LL	???	2fn	-stra-	8d	de-	8g	de-	8b\	-de-	2gg	f	2bb	.
.	.	.	24gg	.	24bb\	.	.	.	.	.	.	.	.	.	.	.	.	.
16F\	.	.	.	.	.	.	.	.	.	.	.	.	.	.	.	.	.	.
.	.	.	24gg	.	24bb\JJ	.	.	.	.	.	.	.	.	.	.	.	.	.
16F\	.	.	24gg	.	24bb\LL	.	.	.	8d	-mon-	8g	-mon-	8b\	-mon-	.	.	.	.
.	.	.	24gg	.	24bb\	.	.	.	.	.	.	.	.	.	.	.	.	.
16F\	.	.	.	.	.	.	.	.	.	.	.	.	.	.	.	.	.	.
.	.	.	24ggJJ	.	24bb\JJ	.	.	.	.	.	.	.	.	.	.	.	.	.
*	*	*	*tremolo	*	*	*	*	*	*	*	*	*	*	*	*	*	*	*
*	*	*	*	*	*Xtremolo	*	*	*	*	*	*	*	*	*	*	*	*	*
!	!	!	!	!	!LO:LB:g=original	!	!	!	!	!	!	!	!	!	!	!	!	!
16F\	.	.	24ggLL	.	24bb\LL	.	.	.	4d	-stra-	4g	-stra-	4b\	-stra-	.	.	.	.
.	.	.	24gg	.	24bb\	.	.	.	.	.	.	.	.	.	.	.	.	.
16F\	.	.	.	.	.	.	.	.	.	.	.	.	.	.	.	.	.	.
.	.	.	24gg	.	24bb\JJ	.	.	.	.	.	.	.	.	.	.	.	.	.
16F\	.	.	24gg	.	24bb\LL	.	.	.	.	.	.	.	.	.	.	.	.	.
.	.	.	24gg	.	24bb\	.	.	.	.	.	.	.	.	.	.	.	.	.
16F\JJ	.	.	.	.	.	.	.	.	.	.	.	.	.	.	.	.	.	.
.	.	.	24ggJJ	.	24bb\JJ	.	.	.	.	.	.	.	.	.	.	.	.	.
*	*	*	*Xtremolo	*	*	*	*	*	*	*	*	*	*	*	*	*	*	*
=88	=88	=88	=88	=88	=88	=88	=88	=88	=88	=88	=88	=88	=88	=88	=88	=88	=88	=88
4E\	6	.	8ggL	.	16ccc\LL	.	4e	-res	4c	-res	4g	-res	4cc\	-res	4gg	.	4ccc	.
.	.	.	.	.	16cc\	.	.	.	.	.	.	.	.	.	.	.	.	.
.	.	.	16r	.	16dd\	.	.	.	.	.	.	.	.	.	.	.	.	.
.	.	.	16ccJk	.	16ee\JJ	.	.	.	.	.	.	.	.	.	.	.	.	.
4r	.	.	16ddLL	pp	16ff\LL	.	4r	.	4r	.	4r	.	4r	.	4r	.	4r	.
.	.	.	16ee	.	16gg\	.	.	.	.	.	.	.	.	.	.	.	.	.
.	.	.	16ff	.	16aa\	.	.	.	.	.	.	.	.	.	.	.	.	.
.	.	.	16ddJJ	.	16bbn\JJ	.	.	.	.	.	.	.	.	.	.	.	.	.
=89	=89	=89	=89	=89	=89	=89	=89	=89	=89	=89	=89	=89	=89	=89	=89	=89	=89	=89
*	*	*	*2\right	*	*	*	*	*	*	*	*	*	*	*	*	*	*	*
*	*	*	*tremolo	*	*	*	*	*	*	*	*	*	*	*	*	*	*	*
8c\L	3	<	16eeLL	.	16ccc\LL	.	4c	pa-	4c	pa-	4e	pa-	4cc\	-pa-	(<2ee	p	[<2ccc	p
.	.	.	16ee	.	16ccc\	.	.	.	.	.	.	.	.	.	.	.	.	.
8c\	.	.	16ee	.	16ccc\	.	.	.	.	.	.	.	.	.	.	.	.	.
.	.	.	16ee	.	16ccc\JJ	.	.	.	.	.	.	.	.	.	.	.	.	.
*	*	*	*	*	*tremolo	*	*	*	*	*	*	*	*	*	*	*	*	*
8c\	.	.	16ee	.	16eee\LL	.	8c	-ne	8c	-ne	8e	-ne	8cc\	-ne	.	.	.	.
.	.	.	16ee	.	16eee\	.	.	.	.	.	.	.	.	.	.	.	.	.
8c\J	.	.	16ee	.	16eee\	.	8c	Sua-	8c	Sua-	8e	Sua-	8cc\	sua	.	.	.	.
.	.	.	16eeJJ	.	16eee\JJ	.	.	.	.	.	.	.	.	.	.	.	.	.
=90	=90	=90	=90	=90	=90	=90	=90	=90	=90	=90	=90	=90	=90	=90	=90	=90	=90	=90
!	!	!	!	!	!	!	!LO:LB:g=original	!	!	!	!	!	!	!	!	!	!	!
*	*	*	*	*	*Xtremolo	*	*	*	*	*	*	*	*	*	*	*	*	*
8A\L	6	.	16ffLL	.	16ccc\LL	.	8.A	-vis-	8.c	-vis-	8.f	-vis-	8.cc\	vis-	2ff)	<	2ccc]	<
.	.	.	16ff	.	16ccc\	.	.	.	.	.	.	.	.	.	.	.	.	.
8A\	.	.	16ff	.	16ccc\	.	.	.	.	.	.	.	.	.	.	.	.	.
.	.	.	16ff	.	16ccc\JJ	.	16A	-si-	16c	-si-	16f	-si-	16cc\	-si	.	.	.	.
*	*	*	*	*	*tremolo	*	*	*	*	*	*	*	*	*	*	*	*	*
8A\	.	.	16ff	.	16ccc\LL	.	8A	-mo	8c	-mo	8fL	-mo	8cc\	mo	.	.	.	.
.	.	.	16ff	.	16ccc\	.	.	.	.	.	.	.	.	.	.	.	.	.
8A\J	.	.	16ff	.	16ccc\	.	8A	de-	8c	de-	8fJ	de	8cc\	de	.	.	.	.
.	.	.	16ffJJ	.	16ccc\JJ	.	.	.	.	.	.	.	.	.	.	.	.	.
=91	=91	=91	=91	=91	=91	=91	=91	=91	=91	=91	=91	=91	=91	=91	=91	=91	=91	=91
8E\L	3	.	16ggLL	.	16ccc\LL	.	4E	-coe-	4c	-coe-	4g	oae-	4cc\	cae-	2gg	.	2ccc	.
.	.	.	16gg	.	16ccc\	.	.	.	.	.	.	.	.	.	.	.	.	.
8E\	.	.	16gg	.	16ccc\	.	.	.	.	.	.	.	.	.	.	.	.	.
.	.	.	16gg	.	16ccc\	.	.	.	.	.	.	.	.	.	.	.	.	.
8E\	.	.	16gg	.	16ccc\	.	4E	-lo	4c	-lo	4g	-lo	4cc\	-lo	.	.	.	.
.	.	.	16gg	.	16ccc\	.	.	.	.	.	.	.	.	.	.	.	.	.
8E\J	.	.	16gg	.	16ccc\	.	.	.	.	.	.	.	.	.	.	.	.	.
.	.	.	16ggJJ	.	16ccc\JJ	.	.	.	.	.	.	.	.	.	.	.	.	.
*Xtremolo	*	*	*	*	*	*	*	*	*	*	*	*	*	*	*	*	*	*
=92	=92	=92	=92	=92	=92	=92	=92	=92	=92	=92	=92	=92	=92	=92	=92	=92	=92	=92
8F\L	.	.	16aaLL	.	16ccc\LL	<	8.F	pra(e)-	8.c	prae-	8.a	prae-	8.cc\	prae-	4aa	mf	4ccc	.
.	.	.	16aa	.	16ccc\	.	.	.	.	.	.	.	.	.	.	.	.	.
8F\	.	.	16aa	.	16ccc\	.	.	.	.	.	.	.	.	.	.	.	.	.
.	.	.	16aaJJ	.	16ccc\	.	16F	-sti-	16c	-sti-	16a	-sti-	16cc\	-sti	.	.	.	.
!	!	!	!LO:TX:b:i:t=ie	!	!	!	!	!	!	!	!	!	!	!	!	!	!	!
8G\	6	.	16eeLL	.	16ccc\	.	8G	-to	8c	-to	8e	-to	8cc\	to	4ee	.	4ccc	.
.	.	.	16ee	.	16ccc\	.	.	.	.	.	.	.	.	.	.	.	.	.
8G\J	.	.	16ee	.	16ccc\	.	8G	e-	8c	e-	8e	e-	8cc\	e-	.	.	.	.
.	.	.	16eeJJ	.	16ccc\JJ	.	.	.	.	.	.	.	.	.	.	.	.	.
=93	=93	=93	=93	=93	=93	=93	=93	=93	=93	=93	=93	=93	=93	=93	=93	=93	=93	=93
!	!	!	!	!	!	!	!	!	!LO:LB:g=original	!	!LO:LB:g=original	!	!	!	!	!	!	!
8A\L	6	.	16ffLL	.	16ccc\LL	.	4A	-sur-	4c	-sur-	4f	-sur-	4cc\	-sur-	4ff	.	2ccc	.
.	.	.	16ff	.	16ccc\	.	.	.	.	.	.	.	.	.	.	.	.	.
8A\	.	.	16ff	.	16ccc\	.	.	.	.	.	.	.	.	.	.	.	.	.
.	.	.	16ffJJ	.	16ccc\	.	.	.	.	.	.	.	.	.	.	.	.	.
!	!	!	!	!LO:DY:t=f	!	!	!	!	!	!	!	!	!	!	!	!	!	!
8G\	6	.	16eeLL	f	16ccc\	.	4G	-ri-	4c	-ri-	4e	-ri-	4cc\	-ri-	4ee	.	.	.
.	.	.	16ee	.	16ccc\	.	.	.	.	.	.	.	.	.	.	.	.	.
8G\J	.	.	16ee	.	16ccc\	.	.	.	.	.	.	.	.	.	.	.	.	.
.	.	.	16eeJJ	.	16ccc\JJ	.	.	.	.	.	.	.	.	.	.	.	.	.
=94	=94	=94	=94	=94	=94	=94	=94	=94	=94	=94	=94	=94	=94	=94	=94	=94	=94	=94
!	!	!	!LO:LB:g=original	!	!	!	!	!	!	!	!	!	!	!	!	!	!	!
!	!	!	!	!	!	!LO:DY:t=for	!	!	!	!	!	!	!	!	!	!	!	!
8F\L	.	.	16ddLL	.	16ccc\LL	f	4F	-en-	4c	-en-	4d	-en-	4cc\	-en-	4dd	.	2ccc	.
.	.	.	16dd	.	16ccc\	.	.	.	.	.	.	.	.	.	.	.	.	.
8F\	.	.	16dd	.	16ccc\	.	.	.	.	.	.	.	.	.	.	.	.	.
.	.	.	16ddJJ	.	16ccc\	.	.	.	.	.	.	.	.	.	.	.	.	.
8F#X\	.	.	16dd#XLL	.	16ccc\	.	4F#X	-tes	4c	-tes	4d#X	-tes	4cc\	-tes	4dd#X	.	.	.
.	.	.	16dd#X	.	16ccc\	.	.	.	.	.	.	.	.	.	.	.	.	.
8F#\J	.	.	16dd#X	.	16ccc\	.	.	.	.	.	.	.	.	.	.	.	.	.
.	.	.	16dd#XJJ	.	16ccc\JJ	.	.	.	.	.	.	.	.	.	.	.	.	.
=95	=95	=95	=95	=95	=95	=95	=95	=95	=95	=95	=95	=95	=95	=95	=95	=95	=95	=95
!	!	!	!	!	!LO:LB:g=original	!	!	!	!	!	!	!	!	!	!	!	!	!
*tremolo	*	*	*tremolo	*	*Xtremolo	*	*	*	*	*	*	*	*	*	*	*	*	*
!	!	!	!LO:SIC:o=:v:w czterech taktach 6 pod łukami	!	!	!	!	!	!	!	!	!	!	!	!	!	!	!
8G\L	.	.	24eeLL	.	(24ccc\LL	.	4.G	re-	4.B	re-	4.e	re-	4.b\	re-	(<2ee	.	2ccc	.
.	.	.	24ee	.	24ccc\	.	.	.	.	.	.	.	.	.	.	.	.	.
.	.	.	24ee	.	24ccc\	.	.	.	.	.	.	.	.	.	.	.	.	.
8G\	.	.	24ee	.	24ccc\	.	.	.	.	.	.	.	.	.	.	.	.	.
.	.	.	24ee	.	24ccc\	.	.	.	.	.	.	.	.	.	.	.	.	.
.	.	.	24ee	.	24ccc\JJ)	.	.	.	.	.	.	.	.	.	.	.	.	.
*	*	*	*	*	*tremolo	*	*	*	*	*	*	*	*	*	*	*	*	*
8G\	.	.	24ee	.	24ccc\LL	.	.	.	.	.	.	.	.	.	.	.	.	.
.	.	.	24ee	.	24ccc\	.	.	.	.	.	.	.	.	.	.	.	.	.
.	.	.	24ee	.	24ccc\	.	.	.	.	.	.	.	.	.	.	.	.	.
8G\J	.	.	24ee	.	24ccc\	.	8G	-ples	8E	-ples	8e	-ples	8cc\	-ples	.	.	.	.
.	.	.	24ee	.	24ccc\	.	.	.	.	.	.	.	.	.	.	.	.	.
.	.	.	24eeJJ	.	24ccc\JJ	.	.	.	.	.	.	.	.	.	.	.	.	.
*	*	*	*Xtremolo	*	*	*	*	*	*	*	*	*	*	*	*	*	*	*
=96	=96	=96	=96	=96	=96	=96	=96	=96	=96	=96	=96	=96	=96	=96	=96	=96	=96	=96
*	*	*	*tremolo	*	*	*	*	*	*	*	*2\right	*	*	*	*	*	*	*
8GG/L	.	.	24ddLL	.	24ccc\LL	.	2G	bo-	2Fn	bo-	2d	bp-	4cc\	bo-	2dd)	.	4ccc	.
.	.	.	24dd	.	24ccc\	.	.	.	.	.	.	.	.	.	.	.	.	.
.	.	.	24dd	.	24ccc\	.	.	.	.	.	.	.	.	.	.	.	.	.
8GG/	.	.	24dd	.	24ccc\	.	.	.	.	.	.	.	.	.	.	.	.	.
.	.	.	24dd	.	24ccc\	.	.	.	.	.	.	.	.	.	.	.	.	.
.	.	.	24ddJJ	.	24ccc\JJ	.	.	.	.	.	.	.	.	.	.	.	.	.
8GG/	.	.	24ddLL	.	24bb\LL	.	.	.	.	.	.	.	4b\	.	.	.	4bb	.
.	.	.	24dd	.	24bb\	.	.	.	.	.	.	.	.	.	.	.	.	.
.	.	.	24dd	.	24bb\	.	.	.	.	.	.	.	.	.	.	.	.	.
8GG/J	.	.	24dd	.	24bb\	.	.	.	.	.	.	.	.	.	.	.	.	.
.	.	.	24dd	.	24bb\	.	.	.	.	.	.	.	.	.	.	.	.	.
.	.	.	24ddJJ	.	24bb\JJ	.	.	.	.	.	.	.	.	.	.	.	.	.
*Xtremolo	*	*	*Xtremolo	*	*Xtremolo	*	*	*	*	*	*	*	*	*	*	*	*	*
=97	=97	=97	=97	=97	=97	=97	=97	=97	=97	=97	=97	=97	=97	=97	=97	=97	=97	=97
*	*	*	*tremolo	*	*	*	*	*	*	*	*	*	*	*	*	*	*	*
!	!	!	!	!	!	!	!LO:LB:g=original	!	!	!	!	!	!	!	!	!	!	!
8C/L	.	.	24ccLL	.	24ccc\LL	.	4E	-nis	4E	-nis	4c	-nis	4cc\	-nis	2cc	.	4ccc	.
.	.	.	24cc	.	24ccc\	.	.	.	.	.	.	.	.	.	.	.	.	.
.	.	.	24cc	.	24ccc\JJ	.	.	.	.	.	.	.	.	.	.	.	.	.
8C/J	.	.	24cc	.	24ccc\LL	.	.	.	.	.	.	.	.	.	.	.	.	.
.	.	.	24cc	.	24ccc\	.	.	.	.	.	.	.	.	.	.	.	.	.
.	.	.	24ccJJ	.	24ccc\JJ	.	.	.	.	.	.	.	.	.	.	.	.	.
!	!	!	!	!	!	!	!LO:LB:g=original	!	!	!	!	!	!	!	!	!	!	!
8C/L	.	.	24ccLL	.	24aa\LL	.	8F	re-	8A	re-	8f	re-	8cc\	re-	.	.	8aaL	.
.	.	.	24cc	.	24ccc\	.	.	.	.	.	.	.	.	.	.	.	.	.
.	.	.	24cc	.	24bb\JJ	.	.	.	.	.	.	.	.	.	.	.	.	.
8C/J	.	.	24cc	.	24aa\LL	.	8F	-ples	8A	-ples	8f	-ples	8cc\	-ples	.	.	8ffJ	.
.	.	.	24cc	.	24gg\	.	.	.	.	.	.	.	.	.	.	.	.	.
.	.	.	24ccJJ	.	24ff\JJ	.	.	.	.	.	.	.	.	.	.	.	.	.
=98	=98	=98	=98	=98	=98	=98	=98	=98	=98	=98	=98	=98	=98	=98	=98	=98	=98	=98
!	!	!	!	!	!	!	!	!	!	!	!	!	!	!	!	!	!LO:LB:g=original	!
*	*	*	*tremolo	*	*	*	*	*	*	*	*	*	*	*	*	*	*	*
8GG/L	.	.	24ccLL	.	24ee\LL	.	2G	bo-	2G	bo-	4e	bo-	4cc\	bo-	4cc	.	4ee	.
.	.	.	24cc	.	24ee\	.	.	.	.	.	.	.	.	.	.	.	.	.
.	.	.	24cc	.	24ee\JJ	.	.	.	.	.	.	.	.	.	.	.	.	.
8GG/J	.	.	24cc	.	24ee\LL	.	.	.	.	.	.	.	.	.	.	.	.	.
.	.	.	24cc	.	24ee\	.	.	.	.	.	.	.	.	.	.	.	.	.
.	.	.	24ccJJ	.	24ee\JJ	.	.	.	.	.	.	.	.	.	.	.	.	.
!	!	!	!	!	!	!	!	!	!	!	!	!	!	!	!	!	!	!
8GG/L	.	.	24bLL	.	24dd\LL	.	.	.	.	.	4d	.	4b\	.	4b	.	4dd	p
.	.	.	24b	.	24dd\	.	.	.	.	.	.	.	.	.	.	.	.	.
.	.	.	24b	.	24dd\JJ	.	.	.	.	.	.	.	.	.	.	.	.	.
8GG/J	.	.	24b	.	24dd\LL	.	.	.	.	.	.	.	.	.	.	.	.	.
.	.	.	24b	.	24dd\	.	.	.	.	.	.	.	.	.	.	.	.	.
.	.	.	24bJJ	.	24dd\JJ	.	.	.	.	.	.	.	.	.	.	.	.	.
.	.	.	.	.	.	.	.	.	.	.	.	.	16qqa/LL	.	16qqaL\	.	.	.
.	.	.	.	.	.	.	.	.	.	.	.	.	16qqb/JJ	.	16qqbJ	.	.	.
*	*	*	*Xtremolo	*	*	*	*	*	*	*	*	*	*	*	*	*	*	*
=99	=99	=99	=99	=99	=99	=99	=99	=99	=99	=99	=99	=99	=99	=99	=99	=99	=99	=99
!	!	!	!	!	!LO:LB:g=original	!	!	!	!	!	!	!	!	!	!	!	!	!
8C\L	.	.	8cc	.	8cc\	.	4C	-nis.	4G	-nis	4e	-nis	4cc\	-nis	8ee	.	8ccc	.
8c\J	.	.	4e	.	4cc\	pp	.	.	.	.	.	.	.	.	4ee	.	4ccc	.
8A\L	.	.	.	.	.	.	4r	.	4r	.	4r	.	4r	.	.	.	.	.
8F#X\J	.	.	8e	.	8cc\	.	.	.	.	.	.	.	.	.	8ee	.	8ccc	.
=100	=100	=100	=100	=100	=100	=100	=100	=100	=100	=100	=100	=100	=100	=100	=100	=100	=100	=100
!	!	!	!	!	!	!	!	!	!	!	!	!	!	!	!LO:LB:g=original	!	!	!
!	!	!	!	!	!	!	!LO:N:vis=00	!	!LO:N:vis=00	!	!LO:N:vis=00	!	!LO:N:vis=00	!	!	!	!	!
4G\	.	.	8eL	.	8cc\L	.	0r	.	0r	.	0r	.	0r	.	8eeL	.	8cccL	.
.	.	.	16dL	.	16b\L	.	.	.	.	.	.	.	.	.	16ddL	.	16bbL	.
.	.	.	16cJJ	.	16a\JJ	.	.	.	.	.	.	.	.	.	16ccJJ	.	16aaJJ	.
8r	.	.	16BLL	.	16g/LL	.	.	.	.	.	.	.	.	.	16bLL\	.	16ggLL	.
.	.	.	16A	.	16f/	.	.	.	.	.	.	.	.	.	16a	.	16ff	.
8G\	.	.	16G	.	16e/	.	.	.	.	.	.	.	.	.	16g	.	16ee	.
.	.	.	16fJJ	.	16d/JJ	.	.	.	.	.	.	.	.	.	16fJJ	.	16ddJJ	.
=101	=101	=101	=101	=101	=101	=101	=101	=101	=101	=101	=101	=101	=101	=101	=101	=101	=101	=101
8c\L	.	.	8e	.	8c/	.	.	.	.	.	.	.	.	.	8e	.	8cc	.
!	!	!	!	!	!	!	!	!	!	!	!	!	!	!	!	!	!	!LO:HP:a
8c\J	.	.	4e	.	4cc\	.	.	.	.	.	.	.	.	.	4ee	.	4ccc	<
8A\L	.	.	.	.	.	.	.	.	.	.	.	.	.	.	.	.	.	.
8F#X\J	.	.	8e	.	8cc\	.	.	.	.	.	.	.	.	.	8ee	.	8ccc	.
=102	=102	=102	=102	=102	=102	=102	=102	=102	=102	=102	=102	=102	=102	=102	=102	=102	=102	=102
!	!	!	!LO:LB:g=original	!	!	!	!	!	!	!	!	!	!	!	!	!	!	!
4G\	.	.	8eL	.	8cc\L	.	.	.	.	.	.	.	.	.	8eeL	.	8cccL	.
.	.	.	16dL	.	16b\L	.	.	.	.	.	.	.	.	.	16ddL	.	16bbL	.
.	.	.	16cJJ	.	16a\JJ	.	.	.	.	.	.	.	.	.	16ccJJ	.	16aaJJ	.
8r	.	.	16BLL	.	16g/LL	.	.	.	.	.	.	.	.	.	16bLL\	.	16ggLL	.
.	.	.	16A	.	16f/	.	.	.	.	.	.	.	.	.	16a	.	16ff	.
8G\	.	.	16G	.	16e/	.	.	.	.	.	.	.	.	.	16g	.	16ee	.
.	.	.	16fJJ	.	16d/JJ	.	.	.	.	.	.	.	.	.	16fJJ	.	16ddJJ	.
=103	=103	=103	=103	=103	=103	=103	=103	=103	=103	=103	=103	=103	=103	=103	=103	=103	=103	=103
*	*	*	*tremolo	*	*	*	*	*	*	*	*	*	*	*	*	*	*	*
8C/L	.	ff	16ccLL	.	32ee\LLL	.	.	.	.	.	.	.	.	.	8eL	.	8cc	.
.	.	.	.	.	32cc\	.	.	.	.	.	.	.	.	.	.	.	.	.
.	.	.	16cc	.	32dd\	.	.	.	.	.	.	.	.	.	.	.	.	.
.	.	.	.	.	32ee\JJJ	.	.	.	.	.	.	.	.	.	.	.	.	.
!	!	!	!	!	!	!LO:DY:t=forte.	!	!	!	!	!	!	!	!	!	!	!	!
8D/J	.	.	16cc	.	32ff\LLL	f	.	.	.	.	.	.	.	.	8f	.	4cc	.
.	.	.	.	.	32gg\	.	.	.	.	.	.	.	.	.	.	.	.	.
.	.	.	16cc	.	32aa\	.	.	.	.	.	.	.	.	.	.	.	.	.
.	.	.	.	.	32bb\JJJ	.	.	.	.	.	.	.	.	.	.	.	.	.
8E\L	.	.	16cc	.	32ccc\LLL	.	.	.	.	.	.	.	.	.	8g	.	.	.
.	.	.	.	.	32bb\	.	.	.	.	.	.	.	.	.	.	.	.	.
.	.	.	16cc	.	32ccc\	.	.	.	.	.	.	.	.	.	.	.	.	.
.	.	.	.	.	32bb\JJJ	.	.	.	.	.	.	.	.	.	.	.	.	.
8E\J	.	.	16cc	.	32ccc\LLL	.	.	.	.	.	.	.	.	.	8gJ	.	8cc	.
.	.	.	.	.	32bb\	.	.	.	.	.	.	.	.	.	.	.	.	.
.	.	.	16ccJJ	.	32aa\	.	.	.	.	.	.	.	.	.	.	.	.	.
.	.	.	.	.	32gg#X\JJJ	.	.	.	.	.	.	.	.	.	.	.	.	.
*	*	*	*Xtremolo	*	*	*	*	*	*	*	*	*	*	*	*	*	*	*
=104	=104	=104	=104	=104	=104	=104	=104	=104	=104	=104	=104	=104	=104	=104	=104	=104	=104	=104
!	!	!	!	!	!LO:LB:g=original	!	!	!	!	!	!	!	!	!	!	!	!	!
!	!	!	!	!	!	!	!LO:N:vis=0	!	!LO:N:vis=0	!	!LO:N:vis=0	!	!LO:N:vis=0	!	!	!	!	!
8F\L	.	.	32ccLLL	.	32aa\LLL	.	1r	.	1r	.	1r	.	1r	.	16aLL	.	16ccLL	.
.	.	.	32cc	.	32aa\	.	.	.	.	.	.	.	.	.	.	.	.	.
.	.	.	32aa	.	32ccc\	.	.	.	.	.	.	.	.	.	16aa	.	16ccc	.
.	.	.	32aaJJJ	.	32ccc\JJJ	.	.	.	.	.	.	.	.	.	.	.	.	.
8F\J	.	.	32ggLLL	.	32bb\LLL	.	.	.	.	.	.	.	.	.	16gg	.	16bb	.
.	.	.	32gg	.	32bb\	.	.	.	.	.	.	.	.	.	.	.	.	.
.	.	.	32ff	.	32aa\	.	.	.	.	.	.	.	.	.	16ffJJ	.	16aaJJ	.
.	.	.	32ffJJJ	.	32aa\JJJ	.	.	.	.	.	.	.	.	.	.	.	.	.
8G/L	.	.	32eeLLL	.	32gg\LLL	.	.	.	.	.	.	.	.	.	16eeLL	.	16ggLL	.
.	.	.	32ee	.	32gg\	.	.	.	.	.	.	.	.	.	.	.	.	.
.	.	.	32dd	.	32ff\	.	.	.	.	.	.	.	.	.	16dd	.	16ff	.
.	.	.	32ddJJJ	.	32ff\JJJ	.	.	.	.	.	.	.	.	.	.	.	.	.
8GG/J	.	.	32ccLLL	.	32ee\LLL	.	.	.	.	.	.	.	.	.	16cc	.	16ee	.
.	.	.	32cc	.	32ee\	.	.	.	.	.	.	.	.	.	.	.	.	.
.	.	.	32b	.	32dd\	.	.	.	.	.	.	.	.	.	16bJJ	.	16ddJJ	.
.	.	.	32bJJJ	.	32dd\JJJ	.	.	.	.	.	.	.	.	.	.	.	.	.
=105	=105	=105	=105	=105	=105	=105	=105	=105	=105	=105	=105	=105	=105	=105	=105	=105	=105	=105
!	!	!	!LO:TX:a:t=P:problem=mixed beam	!	!	!	!	!	!	!	!	!	!	!	!	!	!	!
16C\LL	.	.	16ccLL\	.	16cc/LL	.	.	.	.	.	.	.	.	.	4cc	.	4cc	.
!	!	!	!	!	!LO:TX:a:t=P:problem=mixedbeam	!	!	!	!	!	!	!	!	!	!	!	!	!
32E\L	.	.	32eL/	.	32e/L	.	.	.	.	.	.	.	.	.	.	.	.	.
32F\	.	.	32fJJJ/	.	32f/JJJ	.	.	.	.	.	.	.	.	.	.	.	.	.
32G\	.	.	32gLLL/	.	32g/LLL	.	.	.	.	.	.	.	.	.	.	.	.	.
32F\	.	.	32f	.	32f/	.	.	.	.	.	.	.	.	.	.	.	.	.
32E\	.	.	32e	.	32e/	.	.	.	.	.	.	.	.	.	.	.	.	.
32D\JJJ	.	.	32dJJJ	.	32d/JJJ	.	.	.	.	.	.	.	.	.	.	.	.	.
8C/	.	.	8c	.	8c/	.	.	.	.	.	.	.	.	.	4r	.	4r	.
8r	.	.	8r	.	8r	.	.	.	.	.	.	.	.	.	.	.	.	.
!	!	!	!LO:TX:b:t=fine	!	!LO:TX:b:t=fine	!	!LO:TX:b:t=fine	!	!LO:TX:b:t=fine	!	!LO:TX:b:t=fine	!	!	!	!LO:TX:b:t=fine	!	!LO:TX:b:t=fine	!
==	==	==	==	==	==	==	==	==	==	==	==	==	==	==	==	==	==	==
*-	*-	*-	*-	*-	*-	*-	*-	*-	*-	*-	*-	*-	*-	*-	*-	*-	*-	*-
!!!system-decoration: s1,s2,s3,s4,s5,s6,s7,s8,s9
!!!RDF**kern: > = above
!!!RDF**kern: < = below
!!!RDF**dynam: < = cres
!!!RDF**dynam: p = p:
!!!RDF**dynam: f = for
!!!ENC: Anastazja Marusiak
!!!END: 2020-04-22
!!!EED: Leszek Kubiak
!!!EST: 2020-06-23
